;FLAVOR:Marlin
;TIME:5284
;Filament used: 6.45502m
;Layer height: 0.2
;Generated with Cura_SteamEngine 4.0.0
M140 S60
M105
M190 S60
M104 S200
M105
M109 S200
M82 ;absolute extrusion mode
G28 ;Home
G1 Z15.0 F6000 ;Move the platform down 15mm
;Prime the extruder
G92 E0
G1 F200 E3
G92 E0
G92 E0
G1 F2400 E-5
;LAYER_COUNT:61
;LAYER:0
M107
M204 S5000
M205 X30 Y30
G0 F3600 X70.162 Y79.178 Z0.2
M204 S500
M205 X20 Y20
;TYPE:SKIRT
G1 F2400 E0
G1 F1800 X70.494 Y78.883 E0.01477
G1 X72.267 Y77.416 E0.09131
G1 X72.623 Y77.142 E0.10625
G1 X74.471 Y75.82 E0.18183
G1 X74.84 Y75.575 E0.19656
G1 X76.723 Y74.416 E0.2701
G1 X77.111 Y74.195 E0.28495
G1 X79.032 Y73.19 E0.35706
G1 X79.418 Y73.005 E0.3713
G1 X81.333 Y72.161 E0.4409
G1 X81.738 Y71.998 E0.45542
G1 X83.682 Y71.295 E0.52418
G1 X84.178 Y71.138 E0.54148
G1 X86.965 Y70.38 E0.63754
G1 X87.567 Y70.248 E0.65804
G1 X90.328 Y69.776 E0.7512
G1 X90.994 Y69.697 E0.77351
G1 X94.33 Y69.482 E0.8847
G1 X95.075 Y69.478 E0.90948
G1 X98.393 Y69.651 E1.01998
G1 X98.708 Y69.675 E1.03049
G1 X102.089 Y70.019 E1.14352
G1 X107.414 Y70.317 E1.32091
G1 X112.716 Y70.313 E1.49726
G1 X118.053 Y70.007 E1.67506
G1 X123.038 Y69.534 E1.8416
G1 X123.689 Y69.505 E1.86328
G1 X126.976 Y69.529 E1.97261
G1 X127.523 Y69.557 E1.99082
G1 X129.187 Y69.712 E2.04641
G1 X129.572 Y69.759 E2.05931
G1 X131.406 Y70.043 E2.12103
G1 X131.909 Y70.142 E2.13809
G1 X134.724 Y70.812 E2.23433
G1 X135.224 Y70.953 E2.25161
G1 X137.121 Y71.571 E2.31796
G1 X137.516 Y71.714 E2.33194
G1 X139.368 Y72.455 E2.39828
G1 X139.759 Y72.627 E2.41249
G1 X141.727 Y73.571 E2.48509
G1 X142.115 Y73.774 E2.49965
G1 X143.96 Y74.82 E2.57019
G1 X144.335 Y75.049 E2.58481
G1 X146.244 Y76.312 E2.66094
G1 X146.611 Y76.574 E2.67594
G1 X148.412 Y77.957 E2.75146
G1 X148.762 Y78.246 E2.76656
G1 X150.566 Y79.847 E2.84678
G1 X150.9 Y80.166 E2.86214
G1 X152.553 Y81.861 E2.94089
G1 X152.855 Y82.194 E2.95584
G1 X154.423 Y84.046 E3.03655
G1 X154.709 Y84.408 E3.05189
G1 X156.167 Y86.406 E3.13416
G1 X156.427 Y86.792 E3.14964
G1 X157.77 Y88.945 E3.23404
G1 X158.003 Y89.35 E3.24958
G1 X159.176 Y91.578 E3.33333
G1 X159.375 Y91.991 E3.34857
G1 X160.395 Y94.318 E3.43308
G1 X160.566 Y94.752 E3.44859
G1 X161.434 Y97.205 E3.53514
G1 X161.605 Y97.769 E3.55474
G1 X162.563 Y101.553 E3.68457
G1 X162.682 Y102.132 E3.70423
G1 X163.099 Y104.791 E3.79375
G1 X163.154 Y105.258 E3.80939
G1 X163.365 Y107.822 E3.89495
G1 X163.387 Y108.284 E3.91034
G1 X163.413 Y110.925 E3.99818
G1 X163.4 Y111.401 E4.01402
G1 X163.231 Y114.017 E4.10121
G1 X163.184 Y114.481 E4.11672
G1 X162.828 Y117.053 E4.20308
G1 X162.721 Y117.628 E4.22253
G1 X161.822 Y121.488 E4.35435
G1 X161.698 Y121.944 E4.37007
G1 X161.321 Y123.151 E4.41213
G1 X161.165 Y123.592 E4.42769
G1 X159.73 Y127.228 E4.5577
G1 X159.491 Y127.761 E4.57713
G1 X158.349 Y130.025 E4.66147
G1 X158.124 Y130.434 E4.67699
G1 X156.823 Y132.604 E4.76114
G1 X156.567 Y132.997 E4.77674
G1 X155.131 Y135.037 E4.85972
G1 X154.857 Y135.399 E4.87482
G1 X153.341 Y137.257 E4.95458
G1 X153.041 Y137.599 E4.96971
G1 X151.394 Y139.348 E5.04961
G1 X151.069 Y139.669 E5.06481
G1 X149.313 Y141.285 E5.14418
G1 X148.969 Y141.58 E5.15925
G1 X147.179 Y143.007 E5.23539
G1 X146.817 Y143.275 E5.25037
G1 X144.938 Y144.568 E5.32623
G1 X144.558 Y144.811 E5.34124
G1 X142.614 Y145.956 E5.41628
G1 X142.237 Y146.161 E5.43055
G1 X140.414 Y147.076 E5.49839
G1 X139.922 Y147.297 E5.51633
G1 X137.015 Y148.461 E5.62048
G1 X136.517 Y148.637 E5.63805
G1 X134.653 Y149.21 E5.70291
G1 X134.155 Y149.342 E5.72004
G1 X131.34 Y149.965 E5.81594
G1 X130.663 Y150.077 E5.83876
G1 X127.277 Y150.453 E5.95207
G1 X126.735 Y150.49 E5.97014
G1 X125.294 Y150.527 E6.01808
G1 X124.811 Y150.521 E6.03415
G1 X121.862 Y150.374 E6.13235
G1 X121.52 Y150.348 E6.14376
G1 X118.138 Y149.997 E6.25685
G1 X112.829 Y149.688 E6.43373
G1 X107.525 Y149.679 E6.61014
G1 X102.208 Y149.971 E6.78725
G1 X97.315 Y150.447 E6.95076
G1 X96.725 Y150.477 E6.97041
G1 X93.458 Y150.492 E7.07907
G1 X92.722 Y150.453 E7.10359
G1 X89.337 Y150.077 E7.21686
G1 X88.662 Y149.965 E7.23962
G1 X85.846 Y149.342 E7.33555
G1 X85.347 Y149.21 E7.35271
G1 X83.483 Y148.637 E7.41757
G1 X83.087 Y148.501 E7.4315
G1 X81.177 Y147.774 E7.49947
G1 X80.783 Y147.609 E7.51368
G1 X78.854 Y146.723 E7.58428
G1 X78.454 Y146.522 E7.59917
G1 X76.51 Y145.459 E7.67287
G1 X76.134 Y145.236 E7.68741
G1 X74.304 Y144.066 E7.75965
G1 X73.941 Y143.816 E7.77431
G1 X72.096 Y142.449 E7.85068
G1 X71.743 Y142.168 E7.86569
G1 X69.986 Y140.663 E7.94263
G1 X69.653 Y140.357 E7.95768
G1 X67.963 Y138.689 E8.03665
G1 X67.65 Y138.357 E8.05183
G1 X66.029 Y136.511 E8.13354
G1 X65.736 Y136.151 E8.14898
G1 X64.236 Y134.17 E8.23162
G1 X63.969 Y133.791 E8.24704
G1 X62.618 Y131.709 E8.32959
G1 X62.381 Y131.312 E8.34497
G1 X61.169 Y129.111 E8.42854
G1 X60.915 Y128.596 E8.44764
G1 X59.381 Y125.101 E8.57459
G1 X59.132 Y124.438 E8.59814
G1 X57.953 Y120.666 E8.72958
G1 X57.83 Y120.215 E8.74513
G1 X57.546 Y119.001 E8.7866
G1 X57.456 Y118.541 E8.80219
G1 X56.834 Y114.602 E8.93483
G1 X56.769 Y114.017 E8.9544
G1 X56.6 Y111.402 E9.04156
G1 X56.587 Y110.926 E9.0574
G1 X56.613 Y108.284 E9.14527
G1 X56.635 Y107.822 E9.16066
G1 X56.846 Y105.259 E9.24619
G1 X56.901 Y104.792 E9.26183
G1 X57.318 Y102.133 E9.35135
G1 X57.409 Y101.67 E9.36705
G1 X58 Y99.138 E9.45352
G1 X58.16 Y98.57 E9.47315
G1 X59.395 Y94.864 E9.60308
G1 X59.653 Y94.211 E9.62643
G1 X61.259 Y90.722 E9.75418
G1 X61.527 Y90.204 E9.77358
G1 X62.78 Y88.028 E9.85709
G1 X63.024 Y87.638 E9.87239
G1 X64.424 Y85.567 E9.95554
G1 X64.695 Y85.196 E9.97082
G1 X66.191 Y83.293 E10.05133
G1 X66.488 Y82.941 E10.06665
G1 X68.144 Y81.121 E10.14849
G1 X68.466 Y80.792 E10.1638
G1 X70.162 Y79.178 E10.24167
M204 S5000
M205 X30 Y30
G0 F3600 X70.438 Y79.468
M204 S500
M205 X20 Y20
G1 F1800 X70.749 Y79.191 E10.25552
G1 X72.522 Y77.724 E10.33206
G1 X72.856 Y77.467 E10.34608
G1 X74.704 Y76.145 E10.42165
G1 X75.05 Y75.915 E10.43547
G1 X76.933 Y74.756 E10.50901
G1 X77.297 Y74.55 E10.52292
G1 X79.218 Y73.545 E10.59503
G1 X79.579 Y73.371 E10.60836
G1 X81.494 Y72.527 E10.67796
G1 X81.874 Y72.375 E10.69157
G1 X83.818 Y71.672 E10.76033
G1 X84.283 Y71.524 E10.77656
G1 X87.07 Y70.766 E10.87262
G1 X87.634 Y70.642 E10.89183
G1 X90.395 Y70.17 E10.98499
G1 X91.02 Y70.096 E11.00593
G1 X94.356 Y69.881 E11.11711
G1 X95.054 Y69.877 E11.14033
G1 X98.372 Y70.05 E11.25084
G1 X98.667 Y70.073 E11.26068
G1 X102.048 Y70.417 E11.37371
G1 X107.409 Y70.717 E11.5523
G1 X112.721 Y70.713 E11.72897
G1 X118.085 Y70.405 E11.90768
G1 X123.075 Y69.932 E12.07439
G1 X123.686 Y69.905 E12.09473
G1 X126.973 Y69.929 E12.20406
G1 X127.485 Y69.955 E12.22111
G1 X129.149 Y70.11 E12.27669
G1 X129.511 Y70.155 E12.28883
G1 X131.345 Y70.439 E12.35055
G1 X131.816 Y70.531 E12.36651
G1 X134.631 Y71.201 E12.46276
G1 X135.101 Y71.333 E12.47899
G1 X136.998 Y71.951 E12.54535
G1 X137.368 Y72.085 E12.55844
G1 X139.22 Y72.826 E12.62479
G1 X139.586 Y72.987 E12.63809
G1 X141.554 Y73.931 E12.71068
G1 X141.918 Y74.121 E12.72434
G1 X143.763 Y75.167 E12.79488
G1 X144.115 Y75.383 E12.80862
G1 X146.024 Y76.646 E12.88475
G1 X146.367 Y76.891 E12.89877
G1 X148.168 Y78.274 E12.97429
G1 X148.497 Y78.545 E12.98847
G1 X150.301 Y80.146 E13.06869
G1 X150.614 Y80.445 E13.08309
G1 X152.267 Y82.14 E13.16184
G1 X152.55 Y82.452 E13.17585
G1 X154.118 Y84.304 E13.25656
G1 X154.386 Y84.644 E13.27095
G1 X155.844 Y86.642 E13.35322
G1 X156.088 Y87.003 E13.36771
G1 X157.431 Y89.156 E13.45211
G1 X157.649 Y89.537 E13.46671
G1 X158.822 Y91.765 E13.55046
G1 X159.008 Y92.151 E13.56471
G1 X160.028 Y94.478 E13.64921
G1 X160.189 Y94.885 E13.66377
G1 X161.057 Y97.338 E13.75032
G1 X161.217 Y97.867 E13.7687
G1 X162.175 Y101.651 E13.89852
G1 X162.287 Y102.194 E13.91697
G1 X162.704 Y104.853 E14.00648
G1 X162.756 Y105.291 E14.02116
G1 X162.967 Y107.855 E14.10672
G1 X162.987 Y108.288 E14.12114
G1 X163.013 Y110.929 E14.20898
G1 X163.001 Y111.375 E14.22382
G1 X162.832 Y113.991 E14.31101
G1 X162.787 Y114.427 E14.32559
G1 X162.431 Y116.999 E14.41195
G1 X162.332 Y117.537 E14.43015
G1 X161.433 Y121.397 E14.56197
G1 X161.316 Y121.825 E14.57672
G1 X160.939 Y123.032 E14.61878
G1 X160.793 Y123.446 E14.63338
G1 X159.358 Y127.082 E14.76339
G1 X159.134 Y127.581 E14.78159
G1 X157.992 Y129.845 E14.86592
G1 X157.781 Y130.228 E14.88047
G1 X156.48 Y132.398 E14.96462
G1 X156.24 Y132.767 E14.97926
G1 X154.804 Y134.807 E15.06224
G1 X154.547 Y135.146 E15.07639
G1 X153.031 Y137.004 E15.15614
G1 X152.75 Y137.324 E15.17031
G1 X151.103 Y139.073 E15.25021
G1 X150.798 Y139.375 E15.26449
G1 X149.042 Y140.991 E15.34386
G1 X148.719 Y141.268 E15.35801
G1 X146.929 Y142.695 E15.43415
G1 X146.59 Y142.946 E15.44818
G1 X144.711 Y144.239 E15.52404
G1 X144.355 Y144.466 E15.53809
G1 X142.411 Y145.611 E15.61313
G1 X142.058 Y145.803 E15.62649
G1 X140.235 Y146.718 E15.69433
G1 X139.773 Y146.926 E15.71119
G1 X136.866 Y148.09 E15.81534
G1 X136.399 Y148.255 E15.83181
G1 X134.535 Y148.828 E15.89667
G1 X134.069 Y148.951 E15.9127
G1 X131.254 Y149.574 E16.00859
G1 X130.619 Y149.679 E16.03
G1 X127.233 Y150.055 E16.14331
G1 X126.725 Y150.09 E16.16025
G1 X125.284 Y150.127 E16.20819
G1 X124.831 Y150.122 E16.22326
G1 X121.882 Y149.975 E16.32146
G1 X121.562 Y149.95 E16.33214
G1 X118.183 Y149.599 E16.44513
G1 X112.835 Y149.288 E16.62331
G1 X107.521 Y149.279 E16.80005
G1 X102.173 Y149.573 E16.97819
G1 X97.277 Y150.049 E17.1418
G1 X96.724 Y150.077 E17.16022
G1 X93.457 Y150.092 E17.26888
G1 X92.767 Y150.055 E17.29187
G1 X89.382 Y149.679 E17.40514
G1 X88.748 Y149.574 E17.42652
G1 X85.932 Y148.951 E17.52244
G1 X85.465 Y148.828 E17.5385
G1 X83.601 Y148.255 E17.60336
G1 X83.23 Y148.128 E17.61641
G1 X81.32 Y147.401 E17.68438
G1 X80.95 Y147.245 E17.69774
G1 X79.021 Y146.359 E17.76834
G1 X78.646 Y146.171 E17.78229
G1 X76.702 Y145.108 E17.85598
G1 X76.349 Y144.899 E17.86963
G1 X74.519 Y143.729 E17.94187
G1 X74.179 Y143.495 E17.9556
G1 X72.334 Y142.128 E18.03197
G1 X72.003 Y141.864 E18.04605
G1 X70.246 Y140.359 E18.123
G1 X69.934 Y140.072 E18.1371
G1 X68.244 Y138.404 E18.21608
G1 X67.951 Y138.093 E18.23029
G1 X66.33 Y136.247 E18.312
G1 X66.055 Y135.91 E18.32646
G1 X64.555 Y133.929 E18.40911
G1 X64.305 Y133.573 E18.42358
G1 X62.954 Y131.491 E18.50613
G1 X62.731 Y131.119 E18.52055
G1 X61.519 Y128.918 E18.60412
G1 X61.281 Y128.435 E18.62203
G1 X59.747 Y124.94 E18.74898
G1 X59.514 Y124.319 E18.77104
G1 X58.335 Y120.547 E18.90248
G1 X58.22 Y120.124 E18.91706
G1 X57.936 Y118.91 E18.95853
G1 X57.851 Y118.479 E18.97314
G1 X57.229 Y114.54 E19.10578
G1 X57.168 Y113.991 E19.12415
G1 X56.999 Y111.376 E19.21131
G1 X56.987 Y110.93 E19.22615
G1 X57.013 Y108.288 E19.31402
G1 X57.033 Y107.855 E19.32844
G1 X57.244 Y105.292 E19.41398
G1 X57.296 Y104.854 E19.42865
G1 X57.713 Y102.195 E19.51816
G1 X57.798 Y101.761 E19.53287
G1 X58.389 Y99.229 E19.61935
G1 X58.54 Y98.696 E19.63778
G1 X59.775 Y94.99 E19.7677
G1 X60.017 Y94.378 E19.78959
G1 X61.623 Y90.889 E19.91734
G1 X61.873 Y90.404 E19.93549
G1 X63.126 Y88.228 E20.019
G1 X63.355 Y87.862 E20.03336
G1 X64.755 Y85.791 E20.11651
G1 X65.009 Y85.443 E20.13084
G1 X66.505 Y83.54 E20.21135
G1 X66.784 Y83.21 E20.22572
G1 X68.44 Y81.39 E20.30756
G1 X68.742 Y81.082 E20.32191
G1 X70.438 Y79.468 E20.39978
M204 S5000
M205 X30 Y30
G0 F3600 X70.713 Y79.757
M204 S500
M205 X20 Y20
G1 F1800 X71.004 Y79.499 E20.41271
G1 X72.777 Y78.032 E20.48925
G1 X73.089 Y77.792 E20.50234
G1 X74.937 Y76.47 E20.57792
G1 X75.26 Y76.256 E20.5908
G1 X77.143 Y75.097 E20.66435
G1 X77.482 Y74.904 E20.67732
G1 X79.403 Y73.899 E20.74943
G1 X79.741 Y73.737 E20.7619
G1 X81.656 Y72.893 E20.8315
G1 X82.01 Y72.751 E20.84419
G1 X83.954 Y72.048 E20.91294
G1 X84.388 Y71.91 E20.92809
G1 X87.175 Y71.152 E21.02415
G1 X87.701 Y71.036 E21.04207
G1 X90.462 Y70.564 E21.13523
G1 X91.046 Y70.496 E21.15479
G1 X94.382 Y70.281 E21.26597
G1 X95.034 Y70.277 E21.28766
G1 X98.352 Y70.45 E21.39817
G1 X98.627 Y70.471 E21.40734
G1 X102.03 Y70.817 E21.52111
G1 X107.387 Y71.117 E21.69956
G1 X112.727 Y71.113 E21.87717
G1 X118.119 Y70.804 E22.0568
G1 X123.113 Y70.33 E22.22365
G1 X123.683 Y70.305 E22.24263
G1 X126.97 Y70.329 E22.35195
G1 X127.448 Y70.353 E22.36787
G1 X129.112 Y70.508 E22.42346
G1 X129.45 Y70.55 E22.43479
G1 X131.284 Y70.834 E22.49651
G1 X131.724 Y70.92 E22.51142
G1 X134.539 Y71.59 E22.60767
G1 X134.977 Y71.713 E22.6228
G1 X136.874 Y72.331 E22.68916
G1 X137.219 Y72.457 E22.70137
G1 X139.071 Y73.198 E22.76772
G1 X139.413 Y73.348 E22.78014
G1 X141.381 Y74.292 E22.85274
G1 X141.721 Y74.469 E22.86548
G1 X143.566 Y75.515 E22.93602
G1 X143.894 Y75.717 E22.94884
G1 X145.803 Y76.98 E23.02497
G1 X146.124 Y77.208 E23.03806
G1 X147.925 Y78.591 E23.11359
G1 X148.231 Y78.845 E23.12682
G1 X150.035 Y80.446 E23.20704
G1 X150.327 Y80.724 E23.22045
G1 X151.98 Y82.419 E23.2992
G1 X152.245 Y82.71 E23.31229
G1 X153.813 Y84.562 E23.393
G1 X154.063 Y84.88 E23.40645
G1 X155.521 Y86.878 E23.48872
G1 X155.748 Y87.215 E23.50223
G1 X157.091 Y89.368 E23.58663
G1 X157.295 Y89.723 E23.60025
G1 X158.468 Y91.951 E23.68399
G1 X158.642 Y92.312 E23.69732
G1 X159.662 Y94.639 E23.78183
G1 X159.812 Y95.019 E23.79541
G1 X160.68 Y97.472 E23.88196
G1 X160.83 Y97.966 E23.89913
G1 X161.788 Y101.75 E24.02896
G1 X161.891 Y102.256 E24.04613
G1 X162.308 Y104.915 E24.13565
G1 X162.357 Y105.324 E24.14935
G1 X162.568 Y107.888 E24.23492
G1 X162.587 Y108.292 E24.24837
G1 X162.613 Y110.933 E24.33622
G1 X162.601 Y111.349 E24.35006
G1 X162.432 Y113.965 E24.43725
G1 X162.391 Y114.372 E24.45085
G1 X162.035 Y116.944 E24.53721
G1 X161.942 Y117.446 E24.55419
G1 X161.043 Y121.306 E24.68601
G1 X160.934 Y121.706 E24.6998
G1 X160.557 Y122.913 E24.74186
G1 X160.421 Y123.299 E24.75547
G1 X158.986 Y126.935 E24.88549
G1 X158.777 Y127.401 E24.90247
G1 X157.635 Y129.665 E24.98681
G1 X157.438 Y130.023 E25.0004
G1 X156.137 Y132.193 E25.08455
G1 X155.913 Y132.536 E25.09818
G1 X154.477 Y134.576 E25.18115
G1 X154.237 Y134.893 E25.19438
G1 X152.721 Y136.751 E25.27414
G1 X152.459 Y137.05 E25.28736
G1 X150.812 Y138.799 E25.36726
G1 X150.527 Y139.081 E25.3806
G1 X148.771 Y140.697 E25.45997
G1 X148.47 Y140.955 E25.47316
G1 X146.68 Y142.382 E25.5493
G1 X146.364 Y142.616 E25.56237
G1 X144.485 Y143.909 E25.63824
G1 X144.152 Y144.121 E25.65137
G1 X142.208 Y145.266 E25.72641
G1 X141.878 Y145.446 E25.73891
G1 X140.055 Y146.361 E25.80675
G1 X139.625 Y146.555 E25.82244
G1 X136.718 Y147.719 E25.92659
G1 X136.281 Y147.873 E25.942
G1 X134.417 Y148.446 E26.00686
G1 X133.982 Y148.561 E26.02183
G1 X131.167 Y149.184 E26.11772
G1 X130.575 Y149.282 E26.13768
G1 X127.189 Y149.658 E26.25099
G1 X126.715 Y149.69 E26.26679
G1 X125.274 Y149.727 E26.31473
G1 X124.851 Y149.722 E26.3288
G1 X121.902 Y149.575 E26.42701
G1 X121.603 Y149.552 E26.43698
G1 X118.225 Y149.201 E26.54994
G1 X112.841 Y148.888 E26.72932
G1 X107.517 Y148.879 E26.90639
G1 X102.136 Y149.175 E27.08564
G1 X97.238 Y149.651 E27.24931
G1 X96.722 Y149.677 E27.2665
G1 X93.455 Y149.692 E27.37516
G1 X92.811 Y149.658 E27.39661
G1 X89.426 Y149.282 E27.50989
G1 X88.834 Y149.184 E27.52984
G1 X86.018 Y148.561 E27.62577
G1 X85.583 Y148.446 E27.64073
G1 X83.719 Y147.873 E27.70559
G1 X83.372 Y147.754 E27.7178
G1 X81.462 Y147.027 E27.78577
G1 X81.117 Y146.882 E27.79822
G1 X79.188 Y145.996 E27.86882
G1 X78.838 Y145.82 E27.88185
G1 X76.894 Y144.757 E27.95554
G1 X76.564 Y144.562 E27.96829
G1 X74.734 Y143.392 E28.04053
G1 X74.417 Y143.174 E28.05333
G1 X72.572 Y141.807 E28.1297
G1 X72.263 Y141.56 E28.14286
G1 X70.506 Y140.055 E28.2198
G1 X70.215 Y139.788 E28.23294
G1 X68.525 Y138.12 E28.31192
G1 X68.251 Y137.829 E28.32521
G1 X66.63 Y135.983 E28.40692
G1 X66.373 Y135.669 E28.42042
G1 X64.873 Y133.688 E28.50306
G1 X64.64 Y133.355 E28.51658
G1 X63.289 Y131.273 E28.59913
G1 X63.082 Y130.926 E28.61257
G1 X61.87 Y128.725 E28.69614
G1 X61.647 Y128.275 E28.71284
G1 X60.113 Y124.78 E28.83979
G1 X59.896 Y124.2 E28.86039
G1 X58.717 Y120.428 E28.99183
G1 X58.609 Y120.033 E29.00545
G1 X58.325 Y118.819 E29.04692
G1 X58.247 Y118.416 E29.06057
G1 X57.625 Y114.477 E29.19321
G1 X57.568 Y113.965 E29.21034
G1 X57.399 Y111.35 E29.2975
G1 X57.387 Y110.934 E29.31134
G1 X57.413 Y108.292 E29.39922
G1 X57.432 Y107.888 E29.41267
