;FLAVOR:Marlin
;TIME:6289
;Filament used: 7.36091m
;Layer height: 0.2
;Generated with Cura_SteamEngine 4.0.0
M140 S60
M105
M190 S60
M104 S200
M105
M109 S200
M82 ;absolute extrusion mode
G28 ;Home
G1 Z15.0 F6000 ;Move the platform down 15mm
;Prime the extruder
G92 E0
G1 F200 E3
G92 E0
G92 E0
G1 F2400 E-5
;LAYER_COUNT:41
;LAYER:0
M107
M204 S5000
M205 X30 Y30
G0 F3600 X58.596 Y67.78 Z0.2
M204 S500
M205 X20 Y20
;TYPE:SKIRT
G1 F2400 E0
G1 F1800 X59.024 Y67.428 E0.01843
G1 X62.383 Y64.902 E0.15822
G1 X62.72 Y64.666 E0.1719
G1 X64.929 Y63.217 E0.25977
G1 X65.178 Y63.061 E0.26954
G1 X67.416 Y61.736 E0.35605
G1 X67.675 Y61.591 E0.36592
G1 X70.497 Y60.092 E0.4722
G1 X70.708 Y59.985 E0.48007
G1 X79.864 Y55.547 E0.81848
G1 X84.469 Y52.953 E0.99428
G1 X88.958 Y50.08 E1.17154
G1 X93.58 Y46.862 E1.35886
G1 X93.783 Y46.726 E1.36699
G1 X96.839 Y44.767 E1.48772
G1 X97.094 Y44.612 E1.49764
G1 X99.269 Y43.357 E1.58116
G1 X99.507 Y43.226 E1.5902
G1 X101.734 Y42.064 E1.67375
G1 X102.009 Y41.929 E1.68394
G1 X104.425 Y40.812 E1.77247
G1 X104.827 Y40.642 E1.78698
G1 X108.871 Y39.097 E1.93097
G1 X109.316 Y38.946 E1.9466
G1 X112.183 Y38.086 E2.04615
G1 X112.572 Y37.982 E2.05955
G1 X115.634 Y37.27 E2.1641
G1 X115.944 Y37.206 E2.17463
G1 X117.463 Y36.931 E2.22598
G1 X117.775 Y36.883 E2.23648
G1 X121.039 Y36.457 E2.34596
G1 X121.489 Y36.414 E2.36099
G1 X124.933 Y36.21 E2.47574
G1 X125.385 Y36.199 E2.49078
G1 X128.774 Y36.238 E2.60351
G1 X129.234 Y36.26 E2.61882
G1 X132.758 Y36.555 E2.73644
G1 X133.23 Y36.613 E2.75226
G1 X136.748 Y37.173 E2.87074
G1 X137.096 Y37.238 E2.88252
G1 X138.852 Y37.618 E2.94227
G1 X139.087 Y37.673 E2.9503
G1 X140.893 Y38.136 E3.01231
G1 X141.24 Y38.236 E3.02432
G1 X144.715 Y39.339 E3.14558
G1 X145.062 Y39.46 E3.1578
G1 X146.751 Y40.105 E3.21794
G1 X147.085 Y40.243 E3.22996
G1 X150.509 Y41.777 E3.35475
G1 X150.948 Y41.995 E3.37105
G1 X154.188 Y43.756 E3.4937
G1 X154.607 Y44.004 E3.5099
G1 X157.744 Y46.032 E3.63414
G1 X158.144 Y46.314 E3.65041
G1 X161.084 Y48.551 E3.77329
G1 X161.46 Y48.86 E3.78947
G1 X164.194 Y51.289 E3.91111
G1 X164.541 Y51.622 E3.92711
G1 X167.083 Y54.248 E4.04867
G1 X167.404 Y54.604 E4.06461
G1 X169.694 Y57.355 E4.18366
G1 X169.91 Y57.63 E4.19529
G1 X170.976 Y59.063 E4.2547
G1 X171.179 Y59.353 E4.26647
G1 X173.094 Y62.249 E4.38194
G1 X173.28 Y62.547 E4.39363
G1 X174.149 Y64.032 E4.45086
G1 X174.312 Y64.327 E4.46207
G1 X175.869 Y67.342 E4.57493
G1 X176.059 Y67.745 E4.58975
G1 X177.364 Y70.771 E4.69935
G1 X177.522 Y71.174 E4.71375
G1 X178.587 Y74.19 E4.82013
G1 X178.737 Y74.677 E4.83708
G1 X179.908 Y79.082 E4.98868
G1 X180.032 Y79.649 E5.00798
G1 X180.767 Y83.954 E5.15324
G1 X180.826 Y84.392 E5.16794
G1 X181.092 Y87.044 E5.25659
G1 X181.116 Y87.359 E5.2671
G1 X181.249 Y89.986 E5.35458
G1 X181.257 Y90.26 E5.3637
G1 X181.276 Y92.668 E5.44379
G1 X181.271 Y92.977 E5.45407
G1 X181.117 Y96.777 E5.58056
G1 X181.101 Y97.038 E5.58926
G1 X180.555 Y103.731 E5.81261
G1 X180.35 Y109.053 E5.98975
G1 X180.446 Y114.366 E6.16649
G1 X181.226 Y125.419 E6.53503
G1 X181.241 Y125.761 E6.54642
G1 X181.28 Y128.048 E6.62249
G1 X181.279 Y128.311 E6.63124
G1 X181.215 Y130.966 E6.71957
G1 X181.201 Y131.268 E6.72963
G1 X181.011 Y133.927 E6.81829
G1 X180.965 Y134.357 E6.83267
G1 X180.367 Y138.636 E6.97638
G1 X180.264 Y139.192 E6.99518
G1 X179.251 Y143.572 E7.14471
G1 X179.12 Y144.055 E7.16135
G1 X178.18 Y147.036 E7.26532
G1 X178.039 Y147.436 E7.27942
G1 X176.853 Y150.477 E7.38799
G1 X176.679 Y150.88 E7.40259
G1 X175.255 Y153.902 E7.5137
G1 X175.05 Y154.302 E7.52865
G1 X173.392 Y157.262 E7.64149
G1 X173.215 Y157.558 E7.65296
G1 X172.264 Y159.06 E7.71209
G1 X172.068 Y159.352 E7.72379
G1 X170.018 Y162.227 E7.84123
G1 X169.729 Y162.602 E7.85698
G1 X167.44 Y165.356 E7.97608
G1 X167.121 Y165.712 E7.99198
G1 X164.574 Y168.348 E8.11389
G1 X164.223 Y168.684 E8.13006
G1 X161.477 Y171.125 E8.25226
G1 X161.104 Y171.432 E8.26832
G1 X158.195 Y173.649 E8.38997
G1 X157.799 Y173.928 E8.40609
G1 X154.685 Y175.948 E8.52954
G1 X154.266 Y176.198 E8.54577
G1 X150.995 Y177.982 E8.66969
G1 X150.551 Y178.202 E8.68617
G1 X147.116 Y179.743 E8.81139
G1 X146.784 Y179.881 E8.82335
G1 X145.138 Y180.511 E8.88197
G1 X144.793 Y180.632 E8.89413
G1 X141.282 Y181.751 E9.01669
G1 X140.818 Y181.88 E9.03271
G1 X137.261 Y182.725 E9.15431
G1 X136.904 Y182.799 E9.16644
G1 X135.141 Y183.113 E9.226
G1 X134.795 Y183.165 E9.23763
G1 X131.281 Y183.594 E9.35538
G1 X130.816 Y183.633 E9.3709
G1 X127.326 Y183.803 E9.48711
G1 X126.866 Y183.809 E9.50241
G1 X123.424 Y183.729 E9.61693
G1 X122.974 Y183.703 E9.63192
G1 X119.727 Y183.398 E9.74039
G1 X119.301 Y183.343 E9.75468
G1 X116.145 Y182.831 E9.86102
G1 X115.728 Y182.749 E9.87515
G1 X112.61 Y182.028 E9.98159
G1 X112.125 Y181.896 E9.99831
G1 X107.84 Y180.543 E10.14777
G1 X107.322 Y180.355 E10.1661
G1 X103.5 Y178.775 E10.30365
G1 X103.123 Y178.604 E10.31742
G1 X100.792 Y177.459 E10.4038
G1 X100.533 Y177.325 E10.41349
G1 X98.286 Y176.091 E10.49876
G1 X97.969 Y175.904 E10.511
G1 X93.997 Y173.415 E10.6669
G1 X93.757 Y173.258 E10.67644
G1 X88.198 Y169.418 E10.90116
G1 X83.679 Y166.583 E11.07859
G1 X79.025 Y164.019 E11.25532
G1 X69.744 Y159.525 E11.59829
G1 X69.361 Y159.324 E11.61268
G1 X65.194 Y156.946 E11.77225
G1 X64.857 Y156.74 E11.78539
G1 X62.741 Y155.353 E11.86954
G1 X62.477 Y155.169 E11.88024
G1 X60.27 Y153.558 E11.97112
G1 X59.988 Y153.34 E11.98298
G1 X57.679 Y151.449 E12.08224
G1 X57.389 Y151.197 E12.09502
G1 X55.212 Y149.184 E12.19364
G1 X54.931 Y148.908 E12.20674
G1 X52.794 Y146.673 E12.30959
G1 X52.516 Y146.362 E12.32346
G1 X50.461 Y143.911 E12.42985
G1 X50.189 Y143.564 E12.44451
G1 X48.206 Y140.838 E12.55663
G1 X47.956 Y140.466 E12.57154
G1 X46.185 Y137.634 E12.68263
G1 X45.96 Y137.245 E12.69758
G1 X44.327 Y134.173 E12.81329
G1 X44.122 Y133.752 E12.82887
G1 X42.685 Y130.494 E12.9473
G1 X42.551 Y130.165 E12.95912
G1 X41.929 Y128.512 E13.01786
G1 X41.813 Y128.175 E13.02971
G1 X40.727 Y124.715 E13.15033
G1 X40.627 Y124.363 E13.1625
G1 X40.185 Y122.61 E13.22263
G1 X40.108 Y122.264 E13.23442
G1 X39.406 Y118.646 E13.357
G1 X39.331 Y118.16 E13.37335
G1 X38.904 Y114.458 E13.4973
G1 X38.867 Y113.975 E13.51341
G1 X38.723 Y110.295 E13.6359
G1 X38.722 Y109.808 E13.6521
G1 X38.86 Y106.08 E13.77618
G1 X38.898 Y105.587 E13.79262
G1 X39.322 Y101.894 E13.91626
G1 X39.395 Y101.414 E13.93241
G1 X40.091 Y97.8 E14.05482
G1 X40.2 Y97.33 E14.07087
G1 X41.152 Y93.83 E14.19151
G1 X41.295 Y93.375 E14.20737
G1 X42.492 Y89.992 E14.32672
G1 X42.668 Y89.547 E14.34264
G1 X44.11 Y86.273 E14.46163
G1 X44.311 Y85.857 E14.47699
G1 X45.928 Y82.804 E14.5919
G1 X46.102 Y82.498 E14.60361
G1 X46.997 Y81.012 E14.66131
G1 X47.179 Y80.727 E14.67255
G1 X49.074 Y77.927 E14.785
G1 X49.268 Y77.656 E14.79609
G1 X50.214 Y76.404 E14.84828
G1 X50.41 Y76.157 E14.85877
G1 X52.48 Y73.681 E14.96611
G1 X52.76 Y73.367 E14.9801
G1 X54.917 Y71.107 E15.08401
G1 X55.272 Y70.763 E15.10045
G1 X58.596 Y67.78 E15.249
M204 S5000
M205 X30 Y30
G0 F3600 X58.864 Y68.077
M204 S500
M205 X20 Y20
G1 F1800 X59.265 Y67.748 E15.26625
G1 X62.624 Y65.222 E15.40604
G1 X62.939 Y65 E15.41886
G1 X65.148 Y63.551 E15.50672
G1 X65.382 Y63.405 E15.5159
G1 X67.62 Y62.08 E15.6024
G1 X67.862 Y61.944 E15.61163
G1 X70.684 Y60.445 E15.71791
G1 X70.882 Y60.345 E15.72529
G1 X80.055 Y55.899 E16.06433
G1 X84.663 Y53.303 E16.24025
G1 X89.193 Y50.404 E16.41913
G1 X93.809 Y47.19 E16.6062
G1 X93.999 Y47.063 E16.6138
G1 X97.055 Y45.104 E16.73454
G1 X97.294 Y44.958 E16.74385
G1 X99.469 Y43.703 E16.82737
G1 X99.692 Y43.581 E16.83583
G1 X101.919 Y42.419 E16.91937
G1 X102.177 Y42.292 E16.92894
G1 X104.593 Y41.175 E17.01747
G1 X104.97 Y41.016 E17.03108
G1 X109.014 Y39.471 E17.17506
G1 X109.431 Y39.329 E17.18971
G1 X112.298 Y38.469 E17.28927
G1 X112.663 Y38.372 E17.30183
G1 X115.725 Y37.66 E17.40639
G1 X116.015 Y37.6 E17.41624
G1 X117.534 Y37.325 E17.46758
G1 X117.826 Y37.279 E17.47741
G1 X121.09 Y36.853 E17.5869
G1 X121.512 Y36.813 E17.60099
G1 X124.956 Y36.609 E17.71574
G1 X125.38 Y36.599 E17.72985
G1 X128.769 Y36.638 E17.84258
G1 X129.201 Y36.659 E17.85696
G1 X132.725 Y36.954 E17.97458
G1 X133.167 Y37.008 E17.98939
G1 X136.685 Y37.568 E18.10787
G1 X137.011 Y37.629 E18.1189
G1 X138.767 Y38.009 E18.17866
G1 X138.988 Y38.061 E18.18621
G1 X140.794 Y38.524 E18.24822
G1 X141.119 Y38.617 E18.25947
G1 X144.594 Y39.72 E18.38073
G1 X144.92 Y39.834 E18.39221
G1 X146.609 Y40.479 E18.45235
G1 X146.921 Y40.608 E18.46358
G1 X150.345 Y42.142 E18.58837
G1 X150.757 Y42.346 E18.60366
G1 X153.997 Y44.107 E18.72631
G1 X154.389 Y44.34 E18.74148
G1 X157.526 Y46.368 E18.86572
G1 X157.902 Y46.632 E18.881
G1 X160.842 Y48.869 E19.00387
G1 X161.194 Y49.159 E19.01904
G1 X163.928 Y51.588 E19.14068
G1 X164.254 Y51.9 E19.15568
G1 X166.796 Y54.526 E19.27724
G1 X167.096 Y54.86 E19.29218
G1 X169.386 Y57.611 E19.41123
G1 X169.589 Y57.869 E19.42215
G1 X170.655 Y59.302 E19.48155
G1 X170.846 Y59.574 E19.4926
G1 X172.761 Y62.47 E19.60808
G1 X172.934 Y62.749 E19.619
G1 X173.803 Y64.234 E19.67622
G1 X173.956 Y64.511 E19.68675
G1 X175.513 Y67.526 E19.79961
G1 X175.691 Y67.903 E19.81348
G1 X176.996 Y70.929 E19.92308
G1 X177.145 Y71.307 E19.9366
G1 X178.21 Y74.323 E20.04298
G1 X178.351 Y74.78 E20.05889
G1 X179.522 Y79.185 E20.21049
G1 X179.637 Y79.716 E20.22856
G1 X180.372 Y84.021 E20.37381
G1 X180.428 Y84.432 E20.38761
G1 X180.694 Y87.084 E20.47626
G1 X180.716 Y87.38 E20.48613
G1 X180.849 Y90.007 E20.57362
G1 X180.857 Y90.263 E20.58214
G1 X180.876 Y92.671 E20.66223
G1 X180.871 Y92.961 E20.67188
G1 X180.717 Y96.761 E20.79837
G1 X180.702 Y97.006 E20.80653
G1 X180.158 Y103.684 E21.02938
G1 X179.95 Y109.062 E21.20839
G1 X180.046 Y114.384 E21.38542
G1 X180.827 Y125.448 E21.75433
G1 X180.841 Y125.768 E21.76498
G1 X180.88 Y128.055 E21.84106
G1 X180.879 Y128.302 E21.84928
G1 X180.815 Y130.957 E21.93761
G1 X180.802 Y131.24 E21.94703
G1 X180.612 Y133.899 E22.03569
G1 X180.569 Y134.301 E22.04914
G1 X179.971 Y138.58 E22.19284
G1 X179.875 Y139.102 E22.2105
G1 X178.862 Y143.482 E22.36002
G1 X178.738 Y143.934 E22.37561
G1 X177.798 Y146.915 E22.47957
G1 X177.666 Y147.291 E22.49283
G1 X176.48 Y150.332 E22.60139
G1 X176.318 Y150.71 E22.61507
G1 X174.894 Y153.732 E22.72618
G1 X174.701 Y154.106 E22.74018
G1 X173.043 Y157.066 E22.85302
G1 X172.877 Y157.344 E22.86379
G1 X171.926 Y158.846 E22.92292
G1 X171.742 Y159.119 E22.93387
G1 X169.692 Y161.994 E23.05131
G1 X169.421 Y162.346 E23.06609
G1 X167.132 Y165.1 E23.18519
G1 X166.833 Y165.434 E23.2001
G1 X164.286 Y168.07 E23.32202
G1 X163.957 Y168.385 E23.33717
G1 X161.211 Y170.826 E23.45937
G1 X160.862 Y171.114 E23.47442
G1 X157.953 Y173.331 E23.59607
G1 X157.581 Y173.593 E23.6112
G1 X154.467 Y175.613 E23.73465
G1 X154.075 Y175.846 E23.74982
G1 X150.804 Y177.63 E23.87374
G1 X150.387 Y177.837 E23.88923
G1 X146.952 Y179.378 E24.01445
G1 X146.641 Y179.508 E24.02566
G1 X144.995 Y180.138 E24.08428
G1 X144.672 Y180.251 E24.09566
G1 X141.161 Y181.37 E24.21822
G1 X140.726 Y181.491 E24.23324
G1 X137.169 Y182.336 E24.35484
G1 X136.834 Y182.405 E24.36622
G1 X135.071 Y182.719 E24.42578
G1 X134.746 Y182.768 E24.43671
G1 X131.232 Y183.197 E24.55445
G1 X130.797 Y183.234 E24.56897
G1 X127.307 Y183.404 E24.68519
G1 X126.876 Y183.409 E24.69952
G1 X123.434 Y183.329 E24.81404
G1 X123.012 Y183.305 E24.82809
G1 X119.765 Y183 E24.93657
G1 X119.365 Y182.949 E24.94998
G1 X116.209 Y182.437 E25.05632
G1 X115.818 Y182.36 E25.06957
G1 X112.7 Y181.639 E25.17601
G1 X112.245 Y181.515 E25.1917
G1 X107.96 Y180.162 E25.34116
G1 X107.475 Y179.985 E25.35833
G1 X103.653 Y178.405 E25.49588
G1 X103.3 Y178.245 E25.50877
G1 X100.969 Y177.1 E25.59515
G1 X100.726 Y176.974 E25.60425
G1 X98.479 Y175.74 E25.68952
G1 X98.181 Y175.565 E25.70101
G1 X94.209 Y173.076 E25.85692
G1 X93.985 Y172.928 E25.86585
G1 X88.433 Y169.092 E26.0903
G1 X83.88 Y166.236 E26.26906
G1 X79.221 Y163.67 E26.44596
G1 X69.918 Y159.165 E26.78975
G1 X69.559 Y158.976 E26.80325
G1 X65.392 Y156.598 E26.96282
G1 X65.077 Y156.405 E26.97511
G1 X62.961 Y155.018 E27.05926
G1 X62.712 Y154.846 E27.06932
G1 X60.505 Y153.235 E27.16021
G1 X60.241 Y153.031 E27.1713
G1 X57.932 Y151.14 E27.27057
G1 X57.661 Y150.903 E27.28254
G1 X55.484 Y148.89 E27.38116
G1 X55.22 Y148.631 E27.39346
G1 X53.083 Y146.396 E27.49631
G1 X52.822 Y146.105 E27.50931
G1 X50.767 Y143.654 E27.61569
G1 X50.513 Y143.329 E27.62941
G1 X48.53 Y140.603 E27.74153
G1 X48.295 Y140.254 E27.75552
G1 X46.524 Y137.422 E27.86662
G1 X46.313 Y137.057 E27.88064
G1 X44.68 Y133.985 E27.99636
G1 X44.488 Y133.59 E28.01096
G1 X43.051 Y130.332 E28.1294
G1 X42.925 Y130.024 E28.14046
G1 X42.303 Y128.371 E28.19921
G1 X42.194 Y128.055 E28.21033
G1 X41.108 Y124.595 E28.33094
G1 X41.015 Y124.265 E28.34234
G1 X40.573 Y122.512 E28.40247
G1 X40.501 Y122.188 E28.41351
G1 X39.799 Y118.57 E28.53609
G1 X39.729 Y118.115 E28.5514
G1 X39.302 Y114.413 E28.67535
G1 X39.267 Y113.96 E28.69046
G1 X39.123 Y110.28 E28.81295
G1 X39.122 Y109.823 E28.82815
G1 X39.26 Y106.095 E28.95223
G1 X39.295 Y105.633 E28.96764
G1 X39.719 Y101.94 E29.09128
G1 X39.788 Y101.489 E29.10645
G1 X40.484 Y97.875 E29.22886
G1 X40.586 Y97.435 E29.24389
G1 X41.538 Y93.935 E29.36453
G1 X41.672 Y93.509 E29.37938
G1 X42.869 Y90.126 E29.49873
G1 X43.034 Y89.709 E29.51365
G1 X44.476 Y86.435 E29.63264
G1 X44.665 Y86.045 E29.64705
G1 X46.282 Y82.992 E29.76196
G1 X46.444 Y82.704 E29.77295
G1 X47.339 Y81.218 E29.83065
G1 X47.51 Y80.951 E29.84119
G1 X49.405 Y78.151 E29.95364
G1 X49.587 Y77.897 E29.96404
G1 X50.533 Y76.645 E30.01623
G1 X50.717 Y76.414 E30.02605
G1 X52.787 Y73.938 E30.13339
G1 X53.05 Y73.643 E30.14654
G1 X55.207 Y71.383 E30.25044
G1 X55.54 Y71.06 E30.26587
G1 X58.864 Y68.077 E30.41442
M204 S5000
M205 X30 Y30
G0 F3600 X59.131 Y68.375
M204 S500
M205 X20 Y20
G1 F1800 X59.505 Y68.067 E30.43054
G1 X62.864 Y65.541 E30.57032
G1 X63.158 Y65.334 E30.58228
G1 X65.367 Y63.885 E30.67015
G1 X65.586 Y63.749 E30.67872
G1 X67.824 Y62.424 E30.76523
G1 X68.05 Y62.297 E30.77385
G1 X70.872 Y60.798 E30.88013
G1 X71.057 Y60.705 E30.88702
G1 X80.228 Y56.26 E31.22598
G1 X84.874 Y53.642 E31.40336
G1 X89.409 Y50.74 E31.58243
G1 X94.037 Y47.518 E31.76999
G1 X94.215 Y47.399 E31.77711
G1 X97.271 Y45.44 E31.89784
G1 X97.494 Y45.305 E31.90651
G1 X99.669 Y44.05 E31.99003
G1 X99.877 Y43.935 E31.99794
G1 X102.104 Y42.773 E32.08149
G1 X102.345 Y42.655 E32.09041
G1 X104.761 Y41.538 E32.17894
G1 X105.112 Y41.39 E32.19161
G1 X109.156 Y39.845 E32.33559
G1 X109.546 Y39.712 E32.3493
G1 X112.413 Y38.852 E32.44885
G1 X112.754 Y38.762 E32.46058
G1 X115.816 Y38.05 E32.56514
G1 X116.086 Y37.994 E32.57432
G1 X117.605 Y37.719 E32.62566
G1 X117.878 Y37.676 E32.63485
G1 X121.142 Y37.25 E32.74433
G1 X121.536 Y37.213 E32.75749
G1 X124.98 Y37.009 E32.87224
G1 X125.375 Y36.999 E32.88539
G1 X128.764 Y37.038 E32.99811
G1 X129.167 Y37.058 E33.01153
G1 X132.691 Y37.353 E33.12915
G1 X133.104 Y37.403 E33.14299
G1 X136.622 Y37.963 E33.26147
G1 X136.926 Y38.02 E33.27176
G1 X138.682 Y38.4 E33.33151
G1 X138.889 Y38.448 E33.33858
G1 X140.695 Y38.911 E33.40059
G1 X140.998 Y38.998 E33.41108
G1 X144.473 Y40.101 E33.53234
G1 X144.777 Y40.207 E33.54305
G1 X146.466 Y40.852 E33.60318
G1 X146.758 Y40.973 E33.61369
G1 X150.182 Y42.507 E33.73848
G1 X150.566 Y42.698 E33.75275
G1 X153.806 Y44.459 E33.8754
G1 X154.172 Y44.676 E33.88955
G1 X157.309 Y46.704 E34.01379
G1 X157.66 Y46.95 E34.02805
G1 X160.6 Y49.187 E34.15092
G1 X160.928 Y49.458 E34.16507
G1 X163.662 Y51.887 E34.28671
G1 X163.967 Y52.178 E34.30073
G1 X166.509 Y54.804 E34.42229
G1 X166.789 Y55.116 E34.43623
G1 X169.079 Y57.867 E34.55528
G1 X169.268 Y58.108 E34.56547
G1 X170.334 Y59.541 E34.62487
G1 X170.512 Y59.794 E34.63516
G1 X172.427 Y62.69 E34.75064
G1 X172.589 Y62.951 E34.76085
G1 X173.458 Y64.436 E34.81808
G1 X173.601 Y64.694 E34.82789
G1 X175.158 Y67.709 E34.94075
G1 X175.324 Y68.061 E34.9537
G1 X176.629 Y71.087 E35.0633
G1 X176.767 Y71.44 E35.07591
G1 X177.832 Y74.456 E35.18229
G1 X177.964 Y74.882 E35.19713
G1 X179.135 Y79.287 E35.34873
G1 X179.243 Y79.784 E35.36564
G1 X179.978 Y84.089 E35.5109
G1 X180.03 Y84.472 E35.52375
G1 X180.296 Y87.124 E35.6124
G1 X180.317 Y87.4 E35.62161
G1 X180.45 Y90.027 E35.70909
