;FLAVOR:Marlin
;TIME:1011
;Filament used: 0.927137m
;Layer height: 0.2
;Generated with Cura_SteamEngine 4.0.0
M140 S60
M105
M190 S60
M104 S200
M105
M109 S200
M82 ;absolute extrusion mode
G28 ;Home
G1 Z15.0 F6000 ;Move the platform down 15mm
;Prime the extruder
G92 E0
G1 F200 E3
G92 E0
G92 E0
G1 F2400 E-5
;LAYER_COUNT:13
;LAYER:0
M107
M204 S5000
M205 X30 Y30
G0 F3600 X82.975 Y82.051 Z0.2
M204 S500
M205 X20 Y20
;TYPE:SKIRT
G1 F2400 E0
G1 F1800 X83.49 Y81.555 E0.02378
G1 X83.836 Y81.279 E0.0385
G1 X86.736 Y79.116 E0.15883
G1 X88.995 Y77.32 E0.25482
G1 X89.765 Y76.794 E0.28583
G1 X91.317 Y75.893 E0.34552
G1 X92.082 Y75.515 E0.3739
G1 X98.27 Y72.953 E0.59666
G1 X99.057 Y72.685 E0.62431
G1 X100.798 Y72.217 E0.68427
G1 X101.623 Y72.053 E0.71225
G1 X108.253 Y71.18 E0.93467
G1 X109.078 Y71.125 E0.96217
G1 X110.876 Y71.122 E1.02197
G1 X111.738 Y71.179 E1.0507
G1 X117.834 Y71.997 E1.25527
G1 X118.404 Y72.1 E1.27454
G1 X120.692 Y72.621 E1.35259
G1 X121.379 Y72.818 E1.37636
G1 X121.736 Y72.955 E1.38907
G1 X127.471 Y75.348 E1.59576
G1 X127.465 Y75.363 E1.5963
G1 X128.011 Y75.6 E1.61609
G1 X130.008 Y76.662 E1.69132
G1 X130.62 Y77.033 E1.71513
G1 X130.911 Y77.245 E1.7271
G1 X135.807 Y81.02 E1.93273
G1 X136.257 Y81.401 E1.95234
G1 X137.953 Y82.978 E2.02937
G1 X138.449 Y83.494 E2.05317
G1 X138.727 Y83.841 E2.06796
G1 X140.893 Y86.747 E2.18851
G1 X142.681 Y88.996 E2.28407
G1 X143.208 Y89.768 E2.31516
G1 X144.107 Y91.318 E2.37475
G1 X144.517 Y92.161 E2.40593
G1 X145.869 Y95.557 E2.52751
G1 X147.003 Y98.163 E2.62203
G1 X147.314 Y99.054 E2.65342
G1 X147.782 Y100.794 E2.71335
G1 X147.958 Y101.709 E2.74434
G1 X148.386 Y105.35 E2.86628
G1 X148.802 Y108.124 E2.95957
G1 X148.873 Y109.055 E2.99063
G1 X148.878 Y110.868 E3.05093
G1 X148.821 Y111.737 E3.07989
G1 X148.003 Y117.834 E3.2845
G1 X147.9 Y118.404 E3.30376
G1 X147.379 Y120.692 E3.38181
G1 X147.182 Y121.379 E3.40558
G1 X147.045 Y121.736 E3.4183
G1 X144.652 Y127.471 E3.62498
G1 X144.637 Y127.465 E3.62552
G1 X144.4 Y128.011 E3.64532
G1 X143.338 Y130.008 E3.72055
G1 X142.967 Y130.62 E3.74435
G1 X142.755 Y130.911 E3.75632
G1 X138.98 Y135.807 E3.96195
G1 X138.598 Y136.258 E3.98161
G1 X137.024 Y137.95 E4.05847
G1 X136.508 Y138.446 E4.08228
G1 X136.164 Y138.721 E4.09692
G1 X133.264 Y140.884 E4.21725
G1 X131.005 Y142.68 E4.31324
G1 X130.235 Y143.206 E4.34425
G1 X128.683 Y144.107 E4.40394
G1 X127.918 Y144.485 E4.43232
G1 X121.73 Y147.047 E4.65508
G1 X120.941 Y147.315 E4.68279
G1 X119.201 Y147.782 E4.74272
G1 X118.291 Y147.957 E4.77354
G1 X114.602 Y148.391 E4.89708
G1 X111.866 Y148.802 E4.9891
G1 X110.934 Y148.873 E5.02019
G1 X109.132 Y148.878 E5.08012
G1 X108.264 Y148.821 E5.10906
G1 X102.114 Y147.997 E5.31543
G1 X101.527 Y147.891 E5.33527
G1 X99.292 Y147.376 E5.41156
G1 X98.605 Y147.176 E5.43536
G1 X98.264 Y147.045 E5.4475
G1 X92.529 Y144.652 E5.65419
G1 X92.535 Y144.637 E5.65473
G1 X91.989 Y144.4 E5.67453
G1 X89.992 Y143.338 E5.74975
G1 X89.38 Y142.967 E5.77356
G1 X89.089 Y142.755 E5.78553
G1 X84.193 Y138.98 E5.99116
G1 X83.742 Y138.598 E6.01082
G1 X82.05 Y137.024 E6.08768
G1 X81.554 Y136.508 E6.11148
G1 X81.279 Y136.164 E6.12613
G1 X79.116 Y133.264 E6.24646
G1 X77.32 Y131.005 E6.34245
G1 X76.793 Y130.234 E6.37351
G1 X75.892 Y128.681 E6.43322
G1 X75.515 Y127.918 E6.46153
G1 X72.953 Y121.731 E6.68426
G1 X72.685 Y120.942 E6.71197
G1 X72.218 Y119.203 E6.77186
G1 X72.052 Y118.364 E6.80031
G1 X71.269 Y112.307 E7.00344
G1 X71.221 Y111.739 E7.0224
G1 X71.127 Y109.367 E7.10135
G1 X71.139 Y108.652 E7.12514
G1 X71.179 Y108.263 E7.13814
G1 X71.997 Y102.166 E7.34275
G1 X72.05 Y101.838 E7.3538
G1 X72.289 Y100.563 E7.39694
G1 X72.414 Y100.025 E7.41532
G1 X72.697 Y99.009 E7.45039
G1 X72.956 Y98.261 E7.47672
G1 X75.348 Y92.529 E7.6833
G1 X75.363 Y92.535 E7.68384
G1 X75.6 Y91.989 E7.70364
G1 X76.662 Y89.992 E7.77887
G1 X77.033 Y89.38 E7.80267
G1 X77.245 Y89.089 E7.81464
G1 X81.02 Y84.194 E8.02024
G1 X81.401 Y83.744 E8.03985
G1 X82.975 Y82.051 E8.11674
M204 S5000
M205 X30 Y30
G0 F3600 X83.268 Y82.324
M204 S500
M205 X20 Y20
G1 F1800 X83.768 Y81.844 E8.13979
G1 X84.075 Y81.599 E8.15286
G1 X86.995 Y79.422 E8.274
G1 X89.244 Y77.633 E8.36958
G1 X89.966 Y77.14 E8.39866
G1 X91.518 Y76.239 E8.45835
G1 X92.235 Y75.884 E8.48496
G1 X98.423 Y73.322 E8.70771
G1 X99.16 Y73.072 E8.7336
G1 X100.901 Y72.604 E8.79356
G1 X101.676 Y72.449 E8.81985
G1 X108.306 Y71.576 E9.04226
G1 X109.079 Y71.525 E9.06803
G1 X110.877 Y71.522 E9.12783
G1 X111.685 Y71.575 E9.15476
G1 X117.781 Y72.393 E9.35933
G1 X118.315 Y72.49 E9.37739
G1 X120.603 Y73.011 E9.45543
G1 X121.582 Y73.324 E9.48962
G1 X127.254 Y75.691 E9.69404
G1 X127.301 Y75.707 E9.69569
G1 X127.823 Y75.954 E9.7149
G1 X129.82 Y77.016 E9.79013
G1 X130.667 Y77.561 E9.82362
G1 X135.563 Y81.336 E10.02925
G1 X135.985 Y81.694 E10.04766
G1 X137.681 Y83.271 E10.12468
G1 X138.16 Y83.771 E10.14771
G1 X138.406 Y84.08 E10.16085
G1 X140.571 Y86.985 E10.28135
G1 X142.368 Y89.245 E10.37739
G1 X142.862 Y89.969 E10.40654
G1 X143.761 Y91.519 E10.46613
G1 X144.145 Y92.309 E10.49535
G1 X145.495 Y95.7 E10.61674
G1 X146.636 Y98.322 E10.71185
G1 X146.928 Y99.158 E10.7413
G1 X147.396 Y100.898 E10.80123
G1 X147.561 Y101.756 E10.83029
G1 X147.988 Y105.391 E10.95203
G1 X148.407 Y108.183 E11.04593
G1 X148.473 Y109.056 E11.07505
G1 X148.478 Y110.869 E11.13535
G1 X148.425 Y111.684 E11.16251
G1 X147.607 Y117.781 E11.36712
G1 X147.51 Y118.315 E11.38517
G1 X146.989 Y120.603 E11.46321
G1 X146.676 Y121.582 E11.4974
G1 X144.309 Y127.254 E11.70182
G1 X144.293 Y127.301 E11.70347
G1 X144.046 Y127.823 E11.72268
G1 X142.984 Y129.82 E11.79791
G1 X142.439 Y130.667 E11.83141
G1 X138.664 Y135.563 E12.03703
G1 X138.305 Y135.986 E12.05548
G1 X136.731 Y137.678 E12.13235
G1 X136.231 Y138.157 E12.15538
G1 X135.925 Y138.401 E12.16839
G1 X133.005 Y140.578 E12.28953
G1 X130.756 Y142.367 E12.38511
G1 X130.034 Y142.86 E12.41419
G1 X128.482 Y143.761 E12.47388
G1 X127.765 Y144.116 E12.50049
G1 X121.577 Y146.678 E12.72325
G1 X120.837 Y146.929 E12.74924
G1 X119.097 Y147.396 E12.80916
G1 X118.244 Y147.56 E12.83805
G1 X114.556 Y147.994 E12.96156
G1 X111.806 Y148.407 E13.05405
G1 X110.933 Y148.473 E13.08317
G1 X109.131 Y148.478 E13.1431
G1 X108.317 Y148.425 E13.17023
G1 X102.167 Y147.601 E13.37661
G1 X101.617 Y147.501 E13.39521
G1 X99.382 Y146.986 E13.47149
G1 X98.418 Y146.676 E13.50517
G1 X92.746 Y144.309 E13.70959
G1 X92.699 Y144.293 E13.71124
G1 X92.177 Y144.046 E13.73045
G1 X90.18 Y142.984 E13.80568
G1 X89.333 Y142.439 E13.83918
G1 X84.437 Y138.664 E14.0448
G1 X84.014 Y138.305 E14.06325
G1 X82.322 Y136.731 E14.14012
G1 X81.843 Y136.231 E14.16315
G1 X81.599 Y135.925 E14.17616
G1 X79.422 Y133.005 E14.2973
G1 X77.633 Y130.756 E14.39289
G1 X77.139 Y130.033 E14.42201
G1 X76.238 Y128.48 E14.48173
G1 X75.884 Y127.765 E14.50826
G1 X73.322 Y121.578 E14.73099
G1 X73.071 Y120.838 E14.75698
G1 X72.604 Y119.099 E14.81687
G1 X72.449 Y118.312 E14.84354
G1 X71.666 Y112.255 E15.04668
G1 X71.621 Y111.724 E15.0644
G1 X71.527 Y109.352 E15.14336
G1 X71.575 Y108.316 E15.17785
G1 X72.393 Y102.219 E15.38246
G1 X72.443 Y101.912 E15.3928
G1 X72.682 Y100.637 E15.43595
G1 X72.799 Y100.132 E15.45319
G1 X73.082 Y99.116 E15.48827
G1 X73.325 Y98.415 E15.51294
G1 X75.691 Y92.746 E15.71726
G1 X75.707 Y92.699 E15.71891
G1 X75.954 Y92.177 E15.73812
G1 X77.016 Y90.18 E15.81334
G1 X77.562 Y89.333 E15.84686
G1 X81.337 Y84.438 E16.05246
G1 X81.694 Y84.017 E16.07082
G1 X83.268 Y82.324 E16.14771
M204 S5000
M205 X30 Y30
G0 F3600 X83.561 Y82.596
M204 S500
M205 X20 Y20
G1 F1800 X84.045 Y82.134 E16.16996
G1 X84.314 Y81.92 E16.18139
G1 X87.233 Y79.743 E16.30251
G1 X89.493 Y77.946 E16.39854
G1 X90.166 Y77.486 E16.42565
G1 X91.718 Y76.585 E16.48534
G1 X92.388 Y76.254 E16.5102
G1 X98.576 Y73.692 E16.73295
G1 X99.264 Y73.458 E16.75712
G1 X101.005 Y72.99 E16.81709
G1 X101.728 Y72.846 E16.84161
G1 X108.358 Y71.973 E17.06402
G1 X109.08 Y71.925 E17.08809
G1 X110.878 Y71.922 E17.14789
G1 X111.632 Y71.972 E17.17303
G1 X117.728 Y72.79 E17.3776
G1 X118.226 Y72.88 E17.39443
G1 X120.514 Y73.401 E17.47248
G1 X121.427 Y73.693 E17.50436
G1 X127.162 Y76.086 E17.71104
G1 X127.158 Y76.096 E17.7114
G1 X127.635 Y76.307 E17.72875
G1 X129.632 Y77.369 E17.80398
G1 X130.422 Y77.878 E17.83524
G1 X135.318 Y81.653 E18.04086
G1 X135.712 Y81.987 E18.05804
G1 X137.408 Y83.564 E18.13507
G1 X137.87 Y84.048 E18.15732
G1 X138.085 Y84.319 E18.16883
G1 X140.249 Y87.223 E18.28928
G1 X142.055 Y89.494 E18.38579
G1 X142.516 Y90.169 E18.41298
G1 X143.415 Y91.719 E18.47257
G1 X143.774 Y92.457 E18.49987
G1 X145.137 Y95.881 E18.62244
G1 X146.269 Y98.482 E18.71679
G1 X146.542 Y99.261 E18.74425
G1 X147.01 Y101.001 E18.80418
G1 X147.164 Y101.802 E18.8313
G1 X147.595 Y105.467 E18.95404
G1 X148.011 Y108.242 E19.04737
G1 X148.073 Y109.058 E19.07459
G1 X148.078 Y110.871 E19.13489
G1 X148.028 Y111.631 E19.16022
G1 X147.21 Y117.728 E19.36483
G1 X147.12 Y118.226 E19.38166
G1 X146.599 Y120.514 E19.45971
G1 X146.307 Y121.427 E19.49159
G1 X143.914 Y127.162 E19.69827
G1 X143.904 Y127.158 E19.69863
G1 X143.693 Y127.635 E19.71598
G1 X142.631 Y129.632 E19.79121
G1 X142.122 Y130.422 E19.82247
G1 X138.347 Y135.318 E20.02809
G1 X138.012 Y135.713 E20.04532
G1 X136.438 Y137.405 E20.12218
G1 X135.954 Y137.867 E20.14443
G1 X135.686 Y138.08 E20.15582
G1 X132.767 Y140.257 E20.27693
G1 X130.507 Y142.054 E20.37297
G1 X129.834 Y142.514 E20.40008
G1 X128.282 Y143.415 E20.45977
G1 X127.612 Y143.746 E20.48462
G1 X121.424 Y146.308 E20.70738
G1 X120.734 Y146.543 E20.73162
G1 X118.994 Y147.01 E20.79155
G1 X118.197 Y147.163 E20.81854
G1 X114.485 Y147.6 E20.94285
G1 X111.747 Y148.011 E21.03494
G1 X110.932 Y148.073 E21.06212
G1 X109.13 Y148.078 E21.12206
G1 X108.37 Y148.028 E21.14739
G1 X102.22 Y147.204 E21.35377
G1 X101.707 Y147.111 E21.37111
G1 X99.472 Y146.596 E21.44739
G1 X98.573 Y146.307 E21.4788
G1 X92.838 Y143.914 E21.68549
G1 X92.842 Y143.904 E21.68585
G1 X92.365 Y143.693 E21.70319
G1 X90.368 Y142.631 E21.77842
G1 X89.578 Y142.122 E21.80968
G1 X84.682 Y138.347 E22.01531
G1 X84.287 Y138.012 E22.03253
G1 X82.595 Y136.438 E22.10939
G1 X82.133 Y135.954 E22.13165
G1 X81.92 Y135.686 E22.14303
G1 X79.743 Y132.767 E22.26415
G1 X77.946 Y130.507 E22.36018
G1 X77.485 Y129.832 E22.38737
G1 X76.584 Y128.279 E22.44708
G1 X76.254 Y127.611 E22.47187
G1 X73.692 Y121.424 E22.69459
G1 X73.458 Y120.734 E22.71882
G1 X72.991 Y118.995 E22.77871
G1 X72.845 Y118.261 E22.8036
G1 X72.062 Y112.204 E23.00674
G1 X72.02 Y111.708 E23.02329
G1 X71.926 Y109.336 E23.10225
G1 X71.972 Y108.369 E23.13445
G1 X72.79 Y102.272 E23.33905
G1 X72.836 Y101.985 E23.34872
G1 X73.075 Y100.71 E23.39186
G1 X73.184 Y100.239 E23.40794
G1 X73.467 Y99.223 E23.44302
G1 X73.694 Y98.569 E23.46605
G1 X76.086 Y92.837 E23.67263
G1 X76.097 Y92.841 E23.67302
G1 X76.307 Y92.365 E23.69032
G1 X77.369 Y90.368 E23.76555
G1 X77.879 Y89.577 E23.79685
G1 X81.654 Y84.682 E24.00245
G1 X81.987 Y84.289 E24.01959
G1 X83.561 Y82.596 E24.09647
M204 S5000
M205 X30 Y30
G0 F3600 X83.854 Y82.868
M204 S500
M205 X20 Y20
G1 F1800 X84.553 Y82.241 E24.1277
G1 X87.471 Y80.065 E24.24877
G1 X89.742 Y78.259 E24.34528
G1 X90.367 Y77.832 E24.37045
G1 X91.919 Y76.931 E24.43014
G1 X92.541 Y76.624 E24.45321
G1 X98.729 Y74.062 E24.67597
G1 X99.368 Y73.844 E24.69842
G1 X101.109 Y73.376 E24.75839
G1 X101.78 Y73.243 E24.78114
G1 X108.41 Y72.37 E25.00356
G1 X109.08 Y72.325 E25.02589
G1 X110.878 Y72.322 E25.08569
G1 X111.579 Y72.368 E25.10906
G1 X117.675 Y73.186 E25.31363
G1 X118.138 Y73.27 E25.32928
G1 X120.426 Y73.791 E25.40733
G1 X121.273 Y74.062 E25.4369
G1 X127.008 Y76.455 E25.64359
G1 X127.007 Y76.457 E25.64366
G1 X127.098 Y76.49 E25.64688
G1 X127.448 Y76.66 E25.65983
G1 X129.445 Y77.722 E25.73505
G1 X130.178 Y78.195 E25.76407
G1 X135.074 Y81.97 E25.9697
G1 X135.44 Y82.28 E25.98565
G1 X137.136 Y83.857 E26.06267
G1 X137.765 Y84.558 E26.094
G1 X139.932 Y87.465 E26.2146
G1 X141.742 Y89.742 E26.31134
G1 X142.17 Y90.37 E26.33662
G1 X143.069 Y91.92 E26.39621
G1 X143.402 Y92.605 E26.42155
G1 X144.763 Y96.023 E26.54391
G1 X145.902 Y98.641 E26.63887
G1 X146.156 Y99.365 E26.66439
G1 X146.624 Y101.105 E26.72432
G1 X146.766 Y101.849 E26.74951
G1 X147.197 Y105.512 E26.87218
G1 X147.615 Y108.302 E26.96602
G1 X147.673 Y109.059 E26.99127
G1 X147.678 Y110.872 E27.05157
G1 X147.632 Y111.577 E27.07507
G1 X146.814 Y117.674 E27.27967
G1 X146.73 Y118.138 E27.29535
G1 X146.209 Y120.426 E27.3734
G1 X145.938 Y121.273 E27.40298
G1 X143.545 Y127.008 E27.60967
G1 X143.543 Y127.007 E27.60974
G1 X143.51 Y127.098 E27.61296
G1 X143.34 Y127.448 E27.6259
G1 X142.278 Y129.445 E27.70113
G1 X141.805 Y130.178 E27.73014
G1 X138.03 Y135.074 E27.93577
G1 X137.719 Y135.441 E27.95177
G1 X136.145 Y137.133 E28.02863
G1 X135.447 Y137.759 E28.05982
G1 X132.529 Y139.935 E28.18088
G1 X130.258 Y141.741 E28.27739
G1 X129.633 Y142.168 E28.30257
G1 X128.081 Y143.069 E28.36225
G1 X127.459 Y143.376 E28.38532
G1 X121.271 Y145.938 E28.60808
G1 X120.63 Y146.156 E28.6306
G1 X118.89 Y146.623 E28.69052
G1 X118.15 Y146.765 E28.71558
G1 X114.444 Y147.201 E28.83969
G1 X111.688 Y147.615 E28.93239
G1 X110.93 Y147.673 E28.95767
G1 X109.128 Y147.678 E29.01761
G1 X108.423 Y147.632 E29.0411
G1 X102.273 Y146.808 E29.24748
G1 X101.796 Y146.721 E29.26361
G1 X99.561 Y146.206 E29.33989
G1 X98.727 Y145.938 E29.36903
G1 X92.992 Y143.545 E29.57572
G1 X92.993 Y143.543 E29.57579
G1 X92.902 Y143.51 E29.57901
G1 X92.552 Y143.34 E29.59195
G1 X90.555 Y142.278 E29.66718
G1 X89.822 Y141.805 E29.69619
G1 X84.926 Y138.03 E29.90182
G1 X84.559 Y137.719 E29.91782
G1 X82.867 Y136.145 E29.99468
G1 X82.241 Y135.447 E30.02587
G1 X80.065 Y132.529 E30.14693
G1 X78.259 Y130.258 E30.24344
G1 X77.831 Y129.631 E30.26869
G1 X76.93 Y128.078 E30.32841
G1 X76.624 Y127.458 E30.3514
G1 X74.062 Y121.271 E30.57413
G1 X73.844 Y120.631 E30.59662
G1 X73.377 Y118.892 E30.6565
G1 X73.242 Y118.21 E30.67963
G1 X72.459 Y112.153 E30.88276
G1 X72.42 Y111.692 E30.89815
G1 X72.326 Y109.32 E30.9771
G1 X72.368 Y108.423 E31.00697
G1 X73.186 Y102.326 E31.21157
G1 X73.229 Y102.059 E31.22057
G1 X73.468 Y100.784 E31.26371
G1 X73.57 Y100.347 E31.27864
G1 X73.853 Y99.331 E31.31372
G1 X74.063 Y98.723 E31.33511
G1 X76.455 Y92.991 E31.54169
G1 X76.457 Y92.992 E31.54177
G1 X76.49 Y92.902 E31.54496
G1 X76.66 Y92.552 E31.5579
G1 X77.722 Y90.555 E31.63313
G1 X78.195 Y89.821 E31.66217
G1 X81.97 Y84.926 E31.86777
G1 X82.28 Y84.561 E31.8837
G1 X83.854 Y82.868 E31.96058
M204 S5000
M205 X30 Y30
G1 F2400 E26.96058
;MESH:inner.stl
G0 F3600 X92.586 Y84.747
G0 X93.849 Y84.52
G0 X97.784 Y85.708
G0 X103.199 Y87.203
G0 X103.227 Y87.298
M204 S500
M205 X20 Y20
;TYPE:WALL-INNER
G1 F2400 E31.96058
G1 F1800 X102.052 Y87.682 E32.0017
G1 X101.046 Y88.067 E32.03752
G1 X100.615 Y88.248 E32.05307
G1 X99.807 Y88.615 E32.08259
G1 X99.417 Y88.805 E32.09702
G1 X98.721 Y89.167 E32.12311
G1 X97.584 Y89.824 E32.16679
G1 X96.797 Y90.33 E32.19791
G1 X96.314 Y90.663 E32.21742
G1 X95.671 Y91.136 E32.24397
G1 X94.989 Y91.672 E32.27282
G1 X94.421 Y92.154 E32.2976
G1 X94.136 Y92.406 E32.31025
G1 X93.713 Y92.797 E32.32941
G1 X92.787 Y93.724 E32.37299
G1 X92.404 Y94.137 E32.39172
G1 X91.861 Y94.762 E32.41926
G1 X91.417 Y95.308 E32.44266
G1 X90.871 Y96.025 E32.47264
G1 X90.449 Y96.621 E32.49693
G1 X90.123 Y97.11 E32.51648
G1 X89.824 Y97.586 E32.53517
G1 X89.159 Y98.735 E32.57933
G1 X88.731 Y99.568 E32.61048
G1 X88.413 Y100.242 E32.63526
G1 X88.246 Y100.619 E32.64898
G1 X87.906 Y101.452 E32.6789
G1 X87.653 Y102.137 E32.70319
G1 X87.464 Y102.695 E32.72278
G1 X87.294 Y103.245 E32.74193
G1 X86.955 Y104.511 E32.78552
G1 X86.831 Y105.061 E32.80427
G1 X86.672 Y105.874 E32.83183
G1 X86.56 Y106.564 E32.85508
G1 X86.497 Y107.025 E32.87055
G1 X86.411 Y107.818 E32.89708
G1 X86.364 Y108.397 E32.9164
G1 X86.341 Y108.777 E32.92907
G1 X86.319 Y109.337 E32.94771
G1 X86.319 Y110.649 E32.99134
G1 X86.353 Y111.435 E33.01751
G1 X86.4 Y112.053 E33.03812
G1 X86.47 Y112.752 E33.06149
G1 X86.592 Y113.645 E33.09147
G1 X86.732 Y114.45 E33.11864
G1 X86.958 Y115.503 E33.15446
G1 X87.298 Y116.773 E33.19819
G1 X87.682 Y117.948 E33.23931
G1 X88.068 Y118.957 E33.27524
G1 X88.412 Y119.756 E33.30417
G1 X88.731 Y120.432 E33.32903
