;FLAVOR:Marlin
;TIME:11206
;Filament used: 13.9949m
;Layer height: 0.2
;Generated with Cura_SteamEngine 4.0.0
M140 S60
M105
M190 S60
M104 S200
M105
M109 S200
M82 ;absolute extrusion mode
G28 ;Home
G1 Z15.0 F6000 ;Move the platform down 15mm
;Prime the extruder
G92 E0
G1 F200 E3
G92 E0
G92 E0
G1 F2400 E-5
;LAYER_COUNT:41
;LAYER:0
M107
M204 S5000
M205 X30 Y30
G0 F3600 X58.598 Y67.778 Z0.2
M204 S500
M205 X20 Y20
;TYPE:SKIRT
G1 F2400 E0
G1 F1800 X59.024 Y67.428 E0.01834
G1 X62.371 Y64.91 E0.15764
G1 X62.702 Y64.677 E0.17111
G1 X64.829 Y63.278 E0.25578
G1 X65.072 Y63.126 E0.26532
G1 X67.225 Y61.844 E0.34866
G1 X67.45 Y61.716 E0.35727
G1 X69.565 Y60.57 E0.43728
G1 X69.845 Y60.427 E0.44773
G1 X77.594 Y56.709 E0.7336
G1 X82.318 Y54.209 E0.91136
G1 X86.853 Y51.471 E1.08756
G1 X92.805 Y47.386 E1.32766
G1 X92.938 Y47.297 E1.33298
G1 X96.684 Y44.862 E1.48159
G1 X96.956 Y44.695 E1.4922
G1 X99.05 Y43.478 E1.57276
G1 X99.285 Y43.347 E1.58171
G1 X101.588 Y42.135 E1.66826
G1 X101.875 Y41.994 E1.6789
G1 X104.355 Y40.843 E1.76983
G1 X104.669 Y40.707 E1.78122
G1 X107.342 Y39.636 E1.87699
G1 X107.695 Y39.507 E1.88949
G1 X110.522 Y38.563 E1.98862
G1 X110.9 Y38.449 E2.00175
G1 X113.866 Y37.658 E2.10385
G1 X114.164 Y37.586 E2.11405
G1 X115.734 Y37.247 E2.16747
G1 X115.945 Y37.205 E2.17462
G1 X117.464 Y36.93 E2.22597
G1 X117.776 Y36.882 E2.23647
G1 X121.04 Y36.456 E2.34595
G1 X121.488 Y36.413 E2.36092
G1 X124.9 Y36.21 E2.4746
G1 X125.355 Y36.199 E2.48974
G1 X128.783 Y36.239 E2.60376
G1 X129.243 Y36.261 E2.61908
G1 X132.76 Y36.556 E2.73647
G1 X133.231 Y36.614 E2.75225
G1 X136.749 Y37.174 E2.87073
G1 X137.097 Y37.239 E2.88251
G1 X138.853 Y37.619 E2.94226
G1 X139.088 Y37.674 E2.95029
G1 X140.894 Y38.137 E3.0123
G1 X141.241 Y38.237 E3.02431
G1 X144.716 Y39.34 E3.14557
G1 X145.063 Y39.461 E3.1578
G1 X146.752 Y40.106 E3.21793
G1 X147.086 Y40.244 E3.22995
G1 X150.51 Y41.778 E3.35474
G1 X150.949 Y41.996 E3.37104
G1 X154.189 Y43.757 E3.49369
G1 X154.608 Y44.005 E3.50989
G1 X157.745 Y46.033 E3.63413
G1 X158.145 Y46.315 E3.65041
G1 X161.085 Y48.552 E3.77328
G1 X161.461 Y48.861 E3.78947
G1 X164.195 Y51.29 E3.9111
G1 X164.542 Y51.623 E3.9271
G1 X167.084 Y54.249 E4.04866
G1 X167.405 Y54.605 E4.0646
G1 X169.695 Y57.356 E4.18365
G1 X169.911 Y57.631 E4.19529
G1 X170.977 Y59.064 E4.25469
G1 X171.18 Y59.354 E4.26646
G1 X173.095 Y62.25 E4.38194
G1 X173.281 Y62.548 E4.39362
G1 X174.15 Y64.033 E4.45085
G1 X174.313 Y64.328 E4.46206
G1 X175.87 Y67.343 E4.57492
G1 X176.06 Y67.746 E4.58974
G1 X177.365 Y70.772 E4.69934
G1 X177.523 Y71.175 E4.71374
G1 X178.588 Y74.191 E4.82012
G1 X178.738 Y74.678 E4.83707
G1 X179.908 Y79.081 E4.9886
G1 X180.016 Y79.559 E5.0049
G1 X180.553 Y82.456 E5.10289
G1 X180.609 Y82.816 E5.11501
G1 X180.964 Y85.614 E5.20882
G1 X180.998 Y85.949 E5.22002
G1 X181.196 Y88.632 E5.3095
G1 X181.211 Y88.927 E5.31932
G1 X181.278 Y91.361 E5.40031
G1 X181.279 Y91.637 E5.40949
G1 X181.239 Y94.191 E5.49445
G1 X181.228 Y94.484 E5.5042
G1 X180.949 Y99.016 E5.65522
G1 X180.938 Y99.159 E5.65999
G1 X180.534 Y103.965 E5.8204
G1 X180.346 Y109.287 E5.99752
G1 X180.457 Y114.602 E6.17434
G1 X181.18 Y124.388 E6.50071
G1 X181.195 Y124.71 E6.51143
G1 X181.278 Y128.265 E6.6297
G1 X181.278 Y128.587 E6.64041
G1 X181.212 Y131.033 E6.7218
G1 X181.197 Y131.322 E6.73142
G1 X181.007 Y133.95 E6.81906
G1 X180.962 Y134.375 E6.83327
G1 X180.362 Y138.66 E6.97718
G1 X180.281 Y139.12 E6.99272
G1 X179.655 Y142.027 E7.09162
G1 X179.559 Y142.413 E7.10485
G1 X178.722 Y145.388 E7.20764
G1 X178.597 Y145.783 E7.22142
G1 X177.536 Y148.792 E7.32754
G1 X177.42 Y149.095 E7.33833
G1 X176.809 Y150.583 E7.39183
G1 X176.679 Y150.879 E7.40258
G1 X175.255 Y153.902 E7.51373
G1 X175.049 Y154.302 E7.52869
G1 X173.392 Y157.261 E7.64149
G1 X173.216 Y157.556 E7.65291
G1 X172.265 Y159.059 E7.71207
G1 X172.067 Y159.354 E7.72389
G1 X170.016 Y162.229 E7.84135
G1 X169.727 Y162.604 E7.85709
G1 X167.438 Y165.357 E7.97618
G1 X167.12 Y165.712 E7.99203
G1 X164.573 Y168.348 E8.11394
G1 X164.222 Y168.684 E8.1301
G1 X161.475 Y171.126 E8.25235
G1 X161.103 Y171.433 E8.26839
G1 X158.196 Y173.649 E8.38997
G1 X157.799 Y173.928 E8.40611
G1 X154.684 Y175.949 E8.52961
G1 X154.265 Y176.199 E8.54584
G1 X150.994 Y177.983 E8.66976
G1 X150.549 Y178.204 E8.68628
G1 X147.115 Y179.744 E8.81146
G1 X146.786 Y179.88 E8.8233
G1 X145.139 Y180.511 E8.88196
G1 X144.792 Y180.633 E8.8942
G1 X141.281 Y181.752 E9.01676
G1 X140.817 Y181.881 E9.03278
G1 X137.26 Y182.726 E9.15438
G1 X136.903 Y182.8 E9.1665
G1 X135.14 Y183.114 E9.22606
G1 X134.794 Y183.166 E9.2377
G1 X131.28 Y183.595 E9.35544
G1 X130.815 Y183.634 E9.37096
G1 X127.325 Y183.804 E9.48718
G1 X126.863 Y183.81 E9.50255
G1 X123.434 Y183.729 E9.61663
G1 X122.987 Y183.703 E9.63152
G1 X119.727 Y183.397 E9.74043
G1 X119.3 Y183.342 E9.75474
G1 X116.144 Y182.83 E9.86109
G1 X115.727 Y182.748 E9.87522
G1 X112.609 Y182.027 E9.98166
G1 X112.124 Y181.895 E9.99838
G1 X107.839 Y180.542 E10.14784
G1 X107.321 Y180.354 E10.16616
G1 X103.499 Y178.774 E10.30372
G1 X103.122 Y178.603 E10.31749
G1 X100.791 Y177.458 E10.40386
G1 X100.532 Y177.324 E10.41356
G1 X98.285 Y176.09 E10.49883
G1 X97.966 Y175.902 E10.51114
G1 X93.94 Y173.377 E10.66921
G1 X93.742 Y173.248 E10.67707
G1 X86.121 Y168.068 E10.98355
G1 X81.598 Y165.392 E11.15834
G1 X76.822 Y162.919 E11.33723
G1 X69.766 Y159.535 E11.5975
G1 X69.362 Y159.323 E11.61268
G1 X65.193 Y156.945 E11.77231
G1 X64.847 Y156.733 E11.78581
G1 X62.649 Y155.287 E11.87331
G1 X62.384 Y155.103 E11.88404
G1 X60.183 Y153.491 E11.97478
G1 X59.837 Y153.219 E11.98942
G1 X56.563 Y150.456 E12.13191
G1 X56.208 Y150.133 E12.14787
G1 X54.011 Y147.977 E12.25025
G1 X53.798 Y147.757 E12.26044
G1 X52.724 Y146.597 E12.31302
G1 X52.515 Y146.359 E12.32355
G1 X50.452 Y143.897 E12.43039
G1 X50.251 Y143.645 E12.44111
G1 X49.28 Y142.36 E12.49468
G1 X49.088 Y142.093 E12.50562
G1 X47.213 Y139.327 E12.61676
G1 X46.971 Y138.94 E12.63194
G1 X45.22 Y135.912 E12.74828
G1 X45.003 Y135.504 E12.76365
G1 X43.487 Y132.382 E12.87908
G1 X43.343 Y132.065 E12.89066
G1 X42.639 Y130.389 E12.95112
G1 X42.55 Y130.164 E12.95917
G1 X41.928 Y128.511 E13.01791
G1 X41.812 Y128.174 E13.02977
G1 X40.726 Y124.714 E13.15038
G1 X40.627 Y124.363 E13.16251
G1 X40.183 Y122.604 E13.22285
G1 X40.105 Y122.256 E13.23471
G1 X39.405 Y118.644 E13.35708
G1 X39.33 Y118.159 E13.37341
G1 X38.903 Y114.457 E13.49735
G1 X38.866 Y113.971 E13.51356
G1 X38.723 Y110.271 E13.63672
G1 X38.723 Y109.783 E13.65295
G1 X38.863 Y106.067 E13.77663
G1 X38.9 Y105.578 E13.79294
G1 X39.323 Y101.893 E13.91631
G1 X39.396 Y101.413 E13.93246
G1 X40.092 Y97.799 E14.05487
G1 X40.201 Y97.329 E14.07092
G1 X41.153 Y93.829 E14.19156
G1 X41.296 Y93.374 E14.20742
G1 X42.493 Y89.991 E14.32678
G1 X42.669 Y89.546 E14.34269
G1 X44.111 Y86.272 E14.46168
G1 X44.312 Y85.856 E14.47705
G1 X45.929 Y82.803 E14.59195
G1 X46.103 Y82.497 E14.60366
G1 X46.998 Y81.011 E14.66136
G1 X47.18 Y80.725 E14.67263
G1 X49.078 Y77.921 E14.78525
G1 X49.266 Y77.658 E14.796
G1 X50.195 Y76.425 E14.84735
G1 X50.333 Y76.249 E14.85479
G1 X51.384 Y74.951 E14.91034
G1 X51.587 Y74.713 E14.92074
G1 X53.669 Y72.384 E15.02464
G1 X53.882 Y72.156 E15.03502
G1 X54.995 Y71.027 E15.08775
G1 X55.279 Y70.756 E15.10081
G1 X58.598 Y67.778 E15.24912
M204 S5000
M205 X30 Y30
G0 F3600 X58.865 Y68.076
M204 S500
M205 X20 Y20
G1 F1800 X59.265 Y67.747 E15.26635
G1 X62.612 Y65.229 E15.40565
G1 X62.922 Y65.011 E15.41826
G1 X65.049 Y63.612 E15.50293
G1 X65.276 Y63.47 E15.51184
G1 X67.429 Y62.188 E15.59518
G1 X67.641 Y62.068 E15.60328
G1 X69.756 Y60.922 E15.68329
G1 X70.018 Y60.788 E15.69308
G1 X77.775 Y57.066 E15.97924
G1 X82.511 Y54.56 E16.15745
G1 X87.067 Y51.809 E16.33447
G1 X93.031 Y47.716 E16.57505
G1 X93.156 Y47.632 E16.58006
G1 X96.902 Y45.197 E16.72866
G1 X97.157 Y45.04 E16.73862
G1 X99.251 Y43.823 E16.81918
G1 X99.472 Y43.701 E16.82757
G1 X101.775 Y42.489 E16.91413
G1 X102.043 Y42.357 E16.92407
G1 X104.523 Y41.206 E17.015
G1 X104.817 Y41.078 E17.02567
G1 X107.49 Y40.007 E17.12144
G1 X107.822 Y39.886 E17.1332
G1 X110.649 Y38.942 E17.23233
G1 X111.003 Y38.836 E17.24462
G1 X113.969 Y38.045 E17.34672
G1 X114.249 Y37.977 E17.3563
G1 X115.819 Y37.638 E17.40972
G1 X116.016 Y37.599 E17.4164
G1 X117.535 Y37.324 E17.46774
G1 X117.827 Y37.278 E17.47758
G1 X121.091 Y36.852 E17.58706
G1 X121.512 Y36.813 E17.60112
G1 X124.924 Y36.61 E17.7148
G1 X125.35 Y36.599 E17.72898
G1 X128.778 Y36.639 E17.843
G1 X129.21 Y36.66 E17.85739
G1 X132.727 Y36.955 E17.97477
G1 X133.168 Y37.009 E17.98955
G1 X136.686 Y37.569 E18.10803
G1 X137.012 Y37.63 E18.11906
G1 X138.768 Y38.01 E18.17882
G1 X138.989 Y38.062 E18.18637
G1 X140.795 Y38.525 E18.24838
G1 X141.12 Y38.618 E18.25963
G1 X144.595 Y39.721 E18.38089
G1 X144.921 Y39.835 E18.39237
G1 X146.61 Y40.48 E18.45251
G1 X146.922 Y40.609 E18.46374
G1 X150.346 Y42.143 E18.58853
G1 X150.758 Y42.347 E18.60382
G1 X153.998 Y44.108 E18.72647
G1 X154.39 Y44.341 E18.74164
G1 X157.527 Y46.369 E18.86588
G1 X157.903 Y46.633 E18.88116
G1 X160.843 Y48.87 E19.00403
G1 X161.195 Y49.16 E19.0192
G1 X163.929 Y51.589 E19.14084
G1 X164.255 Y51.901 E19.15585
G1 X166.797 Y54.527 E19.2774
G1 X167.097 Y54.861 E19.29234
G1 X169.387 Y57.612 E19.41139
G1 X169.59 Y57.87 E19.42231
G1 X170.656 Y59.303 E19.48171
G1 X170.847 Y59.575 E19.49276
G1 X172.762 Y62.471 E19.60824
G1 X172.935 Y62.75 E19.61916
G1 X173.804 Y64.235 E19.67639
G1 X173.957 Y64.512 E19.68691
G1 X175.514 Y67.527 E19.79977
G1 X175.692 Y67.904 E19.81364
G1 X176.997 Y70.93 E19.92324
G1 X177.146 Y71.308 E19.93676
G1 X178.211 Y74.324 E20.04314
G1 X178.352 Y74.781 E20.05905
G1 X179.522 Y79.184 E20.21057
G1 X179.623 Y79.631 E20.22582
G1 X180.16 Y82.528 E20.32381
G1 X180.212 Y82.867 E20.33522
G1 X180.567 Y85.665 E20.42903
G1 X180.599 Y85.978 E20.43949
G1 X180.797 Y88.661 E20.52897
G1 X180.811 Y88.938 E20.5382
G1 X180.878 Y91.372 E20.61918
G1 X180.879 Y91.631 E20.6278
G1 X180.839 Y94.185 E20.71275
G1 X180.829 Y94.46 E20.72191
G1 X180.55 Y98.992 E20.87293
G1 X180.54 Y99.126 E20.8774
G1 X180.134 Y103.959 E21.03871
G1 X179.945 Y109.282 E21.21586
G1 X180.058 Y114.62 E21.39345
G1 X180.781 Y124.417 E21.72018
G1 X180.795 Y124.719 E21.73024
G1 X180.878 Y128.274 E21.84851
G1 X180.878 Y128.576 E21.85855
G1 X180.812 Y131.022 E21.93994
G1 X180.798 Y131.293 E21.94896
G1 X180.608 Y133.921 E22.0366
G1 X180.566 Y134.32 E22.04994
G1 X179.966 Y138.605 E22.19385
G1 X179.89 Y139.036 E22.20841
G1 X179.264 Y141.943 E22.30731
G1 X179.174 Y142.305 E22.31972
G1 X178.337 Y145.28 E22.42251
G1 X178.22 Y145.65 E22.43542
G1 X177.159 Y148.659 E22.54154
G1 X177.05 Y148.943 E22.55165
G1 X176.439 Y150.431 E22.60515
G1 X176.317 Y150.709 E22.61525
G1 X174.893 Y153.732 E22.72639
G1 X174.7 Y154.107 E22.74042
G1 X173.043 Y157.066 E22.85322
G1 X172.878 Y157.342 E22.86391
G1 X171.927 Y158.845 E22.92307
G1 X171.741 Y159.122 E22.93417
G1 X169.69 Y161.997 E23.05163
G1 X169.42 Y162.348 E23.06636
G1 X167.131 Y165.101 E23.18544
G1 X166.832 Y165.434 E23.20032
G1 X164.285 Y168.07 E23.32224
G1 X163.956 Y168.385 E23.33739
G1 X161.209 Y170.827 E23.45964
G1 X160.86 Y171.115 E23.47469
G1 X157.953 Y173.331 E23.59626
G1 X157.582 Y173.592 E23.61135
G1 X154.467 Y175.613 E23.73485
G1 X154.074 Y175.847 E23.75006
G1 X150.803 Y177.631 E23.87399
G1 X150.385 Y177.839 E23.88951
G1 X146.951 Y179.379 E24.01469
G1 X146.643 Y179.507 E24.02578
G1 X144.996 Y180.138 E24.08444
G1 X144.671 Y180.252 E24.0959
G1 X141.16 Y181.371 E24.21846
G1 X140.725 Y181.492 E24.23348
G1 X137.168 Y182.337 E24.35508
G1 X136.833 Y182.406 E24.36646
G1 X135.07 Y182.72 E24.42602
G1 X134.745 Y182.769 E24.43695
G1 X131.231 Y183.198 E24.55469
G1 X130.796 Y183.235 E24.56921
G1 X127.306 Y183.405 E24.68543
G1 X126.872 Y183.41 E24.69986
G1 X123.443 Y183.329 E24.81394
G1 X123.024 Y183.305 E24.8279
G1 X119.764 Y182.999 E24.93681
G1 X119.364 Y182.948 E24.95022
G1 X116.208 Y182.436 E25.05656
G1 X115.817 Y182.359 E25.06982
G1 X112.699 Y181.638 E25.17626
G1 X112.244 Y181.514 E25.19194
G1 X107.959 Y180.161 E25.3414
G1 X107.474 Y179.984 E25.35857
G1 X103.652 Y178.404 E25.49612
G1 X103.299 Y178.244 E25.50901
G1 X100.968 Y177.099 E25.59539
G1 X100.725 Y176.973 E25.6045
G1 X98.478 Y175.739 E25.68976
G1 X98.178 Y175.563 E25.70133
G1 X94.152 Y173.038 E25.85939
G1 X93.967 Y172.917 E25.86674
G1 X86.346 Y167.737 E26.17323
G1 X81.785 Y165.039 E26.34948
G1 X76.987 Y162.554 E26.5292
G1 X69.939 Y159.174 E26.78918
G1 X69.56 Y158.976 E26.8034
G1 X65.391 Y156.598 E26.96303
G1 X65.066 Y156.399 E26.97571
G1 X62.868 Y154.953 E27.06321
G1 X62.621 Y154.781 E27.07322
G1 X60.42 Y153.169 E27.16396
G1 X60.095 Y152.913 E27.17772
G1 X56.821 Y150.15 E27.32021
G1 X56.489 Y149.847 E27.33516
G1 X54.292 Y147.691 E27.43754
G1 X54.091 Y147.485 E27.44712
G1 X53.017 Y146.325 E27.4997
G1 X52.821 Y146.103 E27.50954
G1 X50.758 Y143.641 E27.61638
G1 X50.57 Y143.404 E27.62644
G1 X49.599 Y142.119 E27.68001
G1 X49.42 Y141.869 E27.69024
G1 X47.545 Y139.103 E27.80138
G1 X47.317 Y138.74 E27.81564
G1 X45.566 Y135.712 E27.93197
G1 X45.363 Y135.329 E27.94639
G1 X43.847 Y132.207 E28.06182
G1 X43.712 Y131.91 E28.07268
G1 X43.008 Y130.234 E28.13314
G1 X42.924 Y130.023 E28.14069
G1 X42.302 Y128.37 E28.19943
G1 X42.193 Y128.054 E28.21055
G1 X41.107 Y124.594 E28.33117
G1 X41.014 Y124.265 E28.34254
G1 X40.57 Y122.506 E28.40288
G1 X40.498 Y122.18 E28.41398
G1 X39.798 Y118.568 E28.53635
G1 X39.728 Y118.114 E28.55163
G1 X39.301 Y114.412 E28.67558
G1 X39.265 Y113.956 E28.69079
G1 X39.122 Y110.256 E28.81394
G1 X39.122 Y109.798 E28.82918
G1 X39.262 Y106.082 E28.95286
G1 X39.297 Y105.624 E28.96814
G1 X39.72 Y101.939 E29.09151
G1 X39.789 Y101.488 E29.10668
G1 X40.485 Y97.874 E29.22909
G1 X40.587 Y97.434 E29.24411
G1 X41.539 Y93.934 E29.36475
G1 X41.673 Y93.508 E29.37961
G1 X42.87 Y90.125 E29.49896
G1 X43.035 Y89.708 E29.51388
G1 X44.477 Y86.434 E29.63287
G1 X44.666 Y86.044 E29.64728
G1 X46.283 Y82.991 E29.76219
G1 X46.445 Y82.703 E29.77318
G1 X47.34 Y81.217 E29.83087
G1 X47.511 Y80.95 E29.84142
G1 X49.409 Y78.146 E29.95404
G1 X49.586 Y77.898 E29.96417
G1 X50.515 Y76.665 E30.01552
G1 X50.644 Y76.5 E30.02248
G1 X51.695 Y75.202 E30.07803
G1 X51.885 Y74.979 E30.08778
G1 X53.967 Y72.65 E30.19168
G1 X54.167 Y72.437 E30.2014
G1 X55.28 Y71.308 E30.25413
G1 X55.546 Y71.054 E30.26636
G1 X58.865 Y68.076 E30.41467
M204 S5000
M205 X30 Y30
G0 F3600 X59.132 Y68.374
M204 S500
M205 X20 Y20
G1 F1800 X59.505 Y68.067 E30.43074
G1 X62.852 Y65.549 E30.57005
G1 X63.142 Y65.345 E30.58184
G1 X65.269 Y63.946 E30.66652
G1 X65.481 Y63.813 E30.67484
G1 X67.634 Y62.531 E30.75818
G1 X67.831 Y62.419 E30.76572
G1 X69.946 Y61.273 E30.84573
G1 X70.191 Y61.148 E30.85488
G1 X77.957 Y57.422 E31.14137
G1 X82.712 Y54.906 E31.32029
G1 X87.287 Y52.143 E31.49805
G1 X93.257 Y48.046 E31.73888
G1 X93.374 Y47.968 E31.74355
G1 X97.12 Y45.533 E31.89216
G1 X97.358 Y45.386 E31.90146
G1 X99.452 Y44.169 E31.98202
G1 X99.658 Y44.055 E31.98985
G1 X101.961 Y42.843 E32.0764
G1 X102.211 Y42.719 E32.08569
G1 X104.691 Y41.568 E32.17662
G1 X104.966 Y41.45 E32.18657
G1 X107.639 Y40.379 E32.28235
G1 X107.948 Y40.265 E32.2933
G1 X110.775 Y39.321 E32.39243
G1 X111.106 Y39.222 E32.40393
G1 X114.072 Y38.431 E32.50602
G1 X114.333 Y38.368 E32.51495
G1 X115.903 Y38.029 E32.56837
G1 X116.087 Y37.993 E32.57461
G1 X117.606 Y37.718 E32.62595
G1 X117.879 Y37.675 E32.63515
G1 X121.143 Y37.249 E32.74463
G1 X121.535 Y37.212 E32.75772
G1 X124.947 Y37.009 E32.87141
G1 X125.345 Y36.999 E32.88465
G1 X128.773 Y37.039 E32.99867
G1 X129.176 Y37.059 E33.01209
G1 X132.693 Y37.354 E33.12948
G1 X133.105 Y37.404 E33.14328
G1 X136.623 Y37.964 E33.26177
G1 X136.927 Y38.021 E33.27205
G1 X138.683 Y38.401 E33.33181
G1 X138.89 Y38.449 E33.33888
G1 X140.696 Y38.912 E33.40089
G1 X140.999 Y38.999 E33.41137
G1 X144.474 Y40.102 E33.53263
G1 X144.778 Y40.208 E33.54334
G1 X146.467 Y40.853 E33.60348
G1 X146.759 Y40.974 E33.61399
G1 X150.183 Y42.508 E33.73878
G1 X150.567 Y42.699 E33.75304
G1 X153.807 Y44.46 E33.87569
G1 X154.173 Y44.677 E33.88985
G1 X157.31 Y46.705 E34.01409
G1 X157.661 Y46.951 E34.02834
G1 X160.601 Y49.188 E34.15122
G1 X160.929 Y49.459 E34.16537
G1 X163.663 Y51.888 E34.287
G1 X163.968 Y52.179 E34.30103
