;FLAVOR:Marlin
;TIME:1565
;Filament used: 1.38396m
;Layer height: 0.2
;Generated with Cura_SteamEngine 4.0.0
M140 S60
M105
M190 S60
M104 S200
M105
M109 S200
M82 ;absolute extrusion mode
G28 ;Home
G1 Z15.0 F6000 ;Move the platform down 15mm
;Prime the extruder
G92 E0
G1 F200 E3
G92 E0
G92 E0
G1 F2400 E-5
;LAYER_COUNT:13
;LAYER:0
M107
M204 S5000
M205 X30 Y30
G0 F3600 X70.973 Y68.665 Z0.2
M204 S500
M205 X20 Y20
;TYPE:SKIRT
G1 F2400 E0
G1 F1800 X71.283 Y68.372 E0.01419
G1 X73.34 Y66.551 E0.10556
G1 X73.632 Y66.308 E0.1182
G1 X76.18 Y64.309 E0.22591
G1 X76.493 Y64.078 E0.23885
G1 X78.998 Y62.348 E0.3401
G1 X79.358 Y62.117 E0.35433
G1 X82.481 Y60.255 E0.47526
G1 X82.826 Y60.063 E0.4884
G1 X84.859 Y59.015 E0.56447
G1 X85.164 Y58.868 E0.57573
G1 X88.279 Y57.466 E0.68935
G1 X88.739 Y57.28 E0.70585
G1 X92.708 Y55.852 E0.84614
G1 X93.185 Y55.701 E0.86278
G1 X96.932 Y54.675 E0.992
G1 X97.335 Y54.579 E1.00578
G1 X99.726 Y54.088 E1.08696
G1 X100.024 Y54.034 E1.09703
G1 X102.511 Y53.645 E1.18076
G1 X102.872 Y53.599 E1.19286
G1 X105.479 Y53.342 E1.27999
G1 X105.843 Y53.316 E1.29213
G1 X109.838 Y53.151 E1.42511
G1 X110.328 Y53.15 E1.44141
G1 X113.527 Y53.263 E1.54788
G1 X113.976 Y53.295 E1.56285
G1 X118.142 Y53.737 E1.70219
G1 X118.587 Y53.8 E1.71714
G1 X121.247 Y54.273 E1.807
G1 X121.597 Y54.345 E1.81888
G1 X123.919 Y54.893 E1.89823
G1 X124.19 Y54.963 E1.90754
G1 X127.09 Y55.783 E2.00778
G1 X127.537 Y55.928 E2.02341
G1 X131.38 Y57.326 E2.15942
G1 X131.83 Y57.509 E2.17558
G1 X134.567 Y58.747 E2.27549
G1 X134.899 Y58.909 E2.28778
G1 X138.19 Y60.633 E2.41135
G1 X138.542 Y60.832 E2.4248
G1 X140.462 Y61.998 E2.49951
G1 X140.827 Y62.236 E2.514
G1 X144.562 Y64.868 E2.66597
G1 X144.982 Y65.191 E2.6836
G1 X147.785 Y67.536 E2.80515
G1 X148.034 Y67.756 E2.8162
G1 X149.401 Y69.026 E2.87826
G1 X149.632 Y69.252 E2.88901
G1 X151.936 Y71.62 E2.9989
G1 X152.254 Y71.972 E3.01467
G1 X154.859 Y75.08 E3.14956
G1 X155.153 Y75.459 E3.16551
G1 X156.967 Y77.986 E3.26897
G1 X157.178 Y78.298 E3.2815
G1 X158.996 Y81.174 E3.39466
G1 X159.189 Y81.501 E3.40729
G1 X160.394 Y83.684 E3.49023
G1 X160.582 Y84.051 E3.50394
G1 X162.212 Y87.514 E3.63124
G1 X162.37 Y87.88 E3.6445
G1 X163.25 Y90.098 E3.72387
G1 X163.386 Y90.475 E3.7372
G1 X164.601 Y94.203 E3.86761
G1 X164.721 Y94.618 E3.88198
G1 X165.505 Y97.721 E3.98843
G1 X165.592 Y98.116 E4.00188
G1 X166.164 Y101.185 E4.10571
G1 X166.233 Y101.65 E4.12135
G1 X166.65 Y105.399 E4.24681
G1 X166.683 Y105.832 E4.26125
G1 X166.848 Y109.663 E4.38879
G1 X166.852 Y110.079 E4.40263
G1 X166.802 Y112.356 E4.47838
G1 X166.778 Y112.787 E4.49274
G1 X166.368 Y117.36 E4.64544
G1 X166.319 Y117.767 E4.65908
G1 X166.021 Y119.692 E4.72387
G1 X165.948 Y120.083 E4.7371
G1 X165.129 Y123.819 E4.86431
G1 X165.046 Y124.153 E4.87575
G1 X164.355 Y126.654 E4.96205
G1 X164.229 Y127.057 E4.9761
G1 X163.057 Y130.418 E5.09449
G1 X162.917 Y130.783 E5.10749
G1 X162.045 Y132.865 E5.18257
G1 X161.889 Y133.21 E5.19516
G1 X160.059 Y136.944 E5.33347
G1 X159.783 Y137.448 E5.35258
G1 X157.386 Y141.396 E5.5062
G1 X157.13 Y141.785 E5.52168
G1 X155.414 Y144.197 E5.62014
G1 X155.199 Y144.482 E5.63201
G1 X153.632 Y146.443 E5.7155
G1 X153.452 Y146.659 E5.72485
G1 X152.077 Y148.233 E5.79437
G1 X151.806 Y148.523 E5.80757
G1 X148.986 Y151.373 E5.94092
G1 X148.676 Y151.667 E5.95513
G1 X146.657 Y153.452 E6.04476
G1 X146.368 Y153.692 E6.05726
G1 X143.82 Y155.691 E6.16497
G1 X143.507 Y155.922 E6.17791
G1 X141.002 Y157.652 E6.27917
G1 X140.59 Y157.914 E6.29541
G1 X136.629 Y160.225 E6.44793
G1 X136.099 Y160.502 E6.46782
G1 X131.795 Y162.5 E6.62565
G1 X131.268 Y162.717 E6.6446
G1 X127.293 Y164.148 E6.78512
G1 X126.815 Y164.299 E6.80179
G1 X123.068 Y165.325 E6.931
G1 X122.665 Y165.421 E6.94478
G1 X120.274 Y165.912 E7.02597
G1 X119.976 Y165.966 E7.03604
G1 X117.489 Y166.355 E7.11976
G1 X117.128 Y166.401 E7.13187
G1 X114.521 Y166.658 E7.219
G1 X114.157 Y166.684 E7.23114
G1 X110.162 Y166.849 E7.36412
G1 X109.672 Y166.85 E7.38042
G1 X106.472 Y166.737 E7.48692
G1 X106.022 Y166.705 E7.50192
G1 X101.858 Y166.263 E7.6412
G1 X101.414 Y166.2 E7.65611
G1 X98.753 Y165.727 E7.74601
G1 X98.403 Y165.655 E7.75789
G1 X96.056 Y165.101 E7.8381
G1 X95.783 Y165.03 E7.84748
G1 X92.908 Y164.216 E7.94686
G1 X92.463 Y164.072 E7.96242
G1 X88.62 Y162.674 E8.09843
G1 X88.17 Y162.491 E8.11459
G1 X85.433 Y161.253 E8.2145
G1 X85.101 Y161.091 E8.22679
G1 X81.81 Y159.367 E8.35036
G1 X81.458 Y159.168 E8.3638
G1 X79.538 Y158.002 E8.43852
G1 X79.171 Y157.762 E8.4531
G1 X75.429 Y155.122 E8.60542
G1 X74.987 Y154.78 E8.62401
G1 X71.722 Y152.021 E8.76618
G1 X71.354 Y151.685 E8.78275
G1 X68.665 Y149.027 E8.90851
G1 X68.372 Y148.717 E8.9227
G1 X66.551 Y146.66 E9.01407
G1 X66.308 Y146.368 E9.02671
G1 X64.309 Y143.82 E9.13442
G1 X64.078 Y143.507 E9.14736
G1 X62.348 Y141.002 E9.24861
G1 X62.117 Y140.643 E9.26281
G1 X60.254 Y137.519 E9.38379
G1 X60.062 Y137.172 E9.39698
G1 X59.015 Y135.14 E9.47301
G1 X58.868 Y134.836 E9.48424
G1 X57.466 Y131.721 E9.59786
G1 X57.28 Y131.261 E9.61436
G1 X55.852 Y127.292 E9.75465
G1 X55.701 Y126.815 E9.77129
G1 X54.675 Y123.068 E9.90051
G1 X54.579 Y122.665 E9.91429
G1 X54.088 Y120.274 E9.99547
G1 X54.034 Y119.976 E10.00554
G1 X53.645 Y117.489 E10.08927
G1 X53.599 Y117.128 E10.10137
G1 X53.342 Y114.521 E10.1885
G1 X53.316 Y114.157 E10.20064
G1 X53.151 Y110.162 E10.33363
G1 X53.15 Y109.672 E10.34992
G1 X53.263 Y106.472 E10.45642
G1 X53.295 Y106.022 E10.47143
G1 X53.737 Y101.858 E10.6107
G1 X53.8 Y101.414 E10.62562
G1 X54.273 Y98.753 E10.71551
G1 X54.345 Y98.403 E10.72739
G1 X54.893 Y96.081 E10.80674
G1 X54.963 Y95.81 E10.81605
G1 X55.783 Y92.91 E10.91629
G1 X55.928 Y92.462 E10.93195
G1 X57.336 Y88.594 E11.06886
G1 X57.52 Y88.143 E11.08506
G1 X58.748 Y85.431 E11.18408
G1 X58.909 Y85.101 E11.19629
G1 X60.633 Y81.81 E11.31986
G1 X60.832 Y81.458 E11.33331
G1 X61.998 Y79.538 E11.40802
G1 X62.238 Y79.171 E11.42261
G1 X64.878 Y75.429 E11.57492
G1 X65.22 Y74.987 E11.59351
G1 X67.979 Y71.722 E11.73568
G1 X68.315 Y71.354 E11.75226
G1 X70.973 Y68.665 E11.87801
M204 S5000
M205 X30 Y30
G0 F3600 X71.258 Y68.946
M204 S500
M205 X20 Y20
G1 F1800 X71.548 Y68.671 E11.89131
G1 X73.605 Y66.85 E11.98268
G1 X73.879 Y66.622 E11.99454
G1 X76.427 Y64.623 E12.10225
G1 X76.72 Y64.407 E12.11436
G1 X79.225 Y62.677 E12.21561
G1 X79.562 Y62.46 E12.22894
G1 X82.685 Y60.598 E12.34988
G1 X83.009 Y60.419 E12.36219
G1 X85.042 Y59.371 E12.43826
G1 X85.328 Y59.233 E12.44882
G1 X88.443 Y57.831 E12.56244
G1 X88.875 Y57.656 E12.57794
G1 X92.844 Y56.228 E12.71823
G1 X93.29 Y56.087 E12.73379
G1 X97.037 Y55.061 E12.86301
G1 X97.415 Y54.971 E12.87593
G1 X99.806 Y54.48 E12.95711
G1 X100.086 Y54.429 E12.96658
G1 X102.573 Y54.04 E13.0503
G1 X102.911 Y53.997 E13.06164
G1 X105.518 Y53.74 E13.14877
G1 X105.859 Y53.716 E13.16014
G1 X109.854 Y53.551 E13.29312
G1 X110.314 Y53.55 E13.30842
G1 X113.513 Y53.663 E13.41489
G1 X113.934 Y53.692 E13.42892
G1 X118.1 Y54.134 E13.56826
G1 X118.517 Y54.194 E13.58228
G1 X121.177 Y54.667 E13.67214
G1 X121.505 Y54.734 E13.68327
G1 X123.827 Y55.282 E13.76262
G1 X124.082 Y55.348 E13.77138
G1 X126.982 Y56.168 E13.87162
G1 X127.4 Y56.303 E13.88623
G1 X131.243 Y57.701 E14.02224
G1 X131.665 Y57.873 E14.0374
G1 X134.402 Y59.111 E14.13731
G1 X134.713 Y59.263 E14.14882
G1 X138.004 Y60.987 E14.27239
G1 X138.334 Y61.174 E14.28501
G1 X140.254 Y62.34 E14.35972
G1 X140.596 Y62.563 E14.3733
G1 X144.331 Y65.195 E14.52527
G1 X144.725 Y65.498 E14.5418
G1 X147.528 Y67.843 E14.66336
G1 X147.762 Y68.049 E14.67373
G1 X149.129 Y69.319 E14.73579
G1 X149.345 Y69.531 E14.74585
G1 X151.649 Y71.899 E14.85574
G1 X151.947 Y72.229 E14.87053
G1 X154.552 Y75.337 E15.00541
G1 X154.828 Y75.692 E15.02037
G1 X156.642 Y78.219 E15.12383
G1 X156.84 Y78.512 E15.13559
G1 X158.658 Y81.388 E15.24875
G1 X158.839 Y81.694 E15.26058
G1 X160.044 Y83.877 E15.34351
G1 X160.22 Y84.222 E15.35639
G1 X161.85 Y87.685 E15.4837
G1 X161.998 Y88.027 E15.49609
G1 X162.878 Y90.245 E15.57546
G1 X163.006 Y90.599 E15.58798
G1 X164.221 Y94.327 E15.71839
G1 X164.333 Y94.716 E15.73185
G1 X165.117 Y97.819 E15.8383
G1 X165.198 Y98.19 E15.85093
G1 X165.77 Y101.259 E15.95476
G1 X165.835 Y101.695 E15.96943
G1 X166.252 Y105.444 E16.09489
G1 X166.283 Y105.849 E16.1084
G1 X166.448 Y109.68 E16.23593
G1 X166.453 Y110.07 E16.24891
G1 X166.403 Y112.347 E16.32466
G1 X166.38 Y112.751 E16.33812
G1 X165.97 Y117.324 E16.49083
G1 X165.923 Y117.706 E16.50363
G1 X165.625 Y119.631 E16.56842
G1 X165.557 Y119.998 E16.58083
G1 X164.738 Y123.734 E16.70804
G1 X164.66 Y124.047 E16.71877
G1 X163.969 Y126.548 E16.80507
G1 X163.851 Y126.926 E16.81824
G1 X162.679 Y130.287 E16.93663
G1 X162.548 Y130.629 E16.94881
G1 X161.676 Y132.711 E17.02389
G1 X161.53 Y133.033 E17.03565
G1 X159.7 Y136.767 E17.17395
G1 X159.441 Y137.241 E17.19192
G1 X157.044 Y141.189 E17.34554
G1 X156.804 Y141.553 E17.36004
G1 X155.088 Y143.965 E17.45849
G1 X154.886 Y144.233 E17.46965
G1 X153.319 Y146.194 E17.55314
G1 X153.151 Y146.395 E17.56186
G1 X151.776 Y147.969 E17.63137
G1 X151.522 Y148.242 E17.64377
G1 X148.702 Y151.092 E17.77712
G1 X148.411 Y151.367 E17.79044
G1 X146.392 Y153.152 E17.88007
G1 X146.121 Y153.378 E17.89181
G1 X143.573 Y155.377 E17.99952
G1 X143.28 Y155.593 E18.01163
G1 X140.775 Y157.323 E18.11289
G1 X140.389 Y157.568 E18.12809
G1 X136.428 Y159.879 E18.28062
G1 X135.93 Y160.139 E18.2993
G1 X131.626 Y162.137 E18.45713
G1 X131.132 Y162.34 E18.47489
G1 X127.157 Y163.771 E18.61541
G1 X126.71 Y163.913 E18.63101
G1 X122.963 Y164.939 E18.76022
G1 X122.585 Y165.029 E18.77314
G1 X120.194 Y165.52 E18.85433
G1 X119.914 Y165.571 E18.86379
G1 X117.427 Y165.96 E18.94752
G1 X117.089 Y166.003 E18.95885
G1 X114.482 Y166.26 E19.04598
G1 X114.141 Y166.284 E19.05735
G1 X110.146 Y166.449 E19.19034
G1 X109.686 Y166.45 E19.20564
G1 X106.486 Y166.337 E19.31214
G1 X106.065 Y166.307 E19.32617
G1 X101.901 Y165.865 E19.46545
G1 X101.484 Y165.806 E19.47946
G1 X98.823 Y165.333 E19.56935
G1 X98.495 Y165.266 E19.58048
G1 X96.148 Y164.712 E19.66069
G1 X95.891 Y164.645 E19.66952
G1 X93.016 Y163.831 E19.7689
G1 X92.6 Y163.697 E19.78344
G1 X88.757 Y162.299 E19.91945
G1 X88.335 Y162.127 E19.93461
G1 X85.598 Y160.889 E20.03452
G1 X85.287 Y160.737 E20.04604
G1 X81.996 Y159.013 E20.16961
G1 X81.666 Y158.826 E20.18222
G1 X79.746 Y157.66 E20.25693
G1 X79.401 Y157.435 E20.27063
G1 X75.659 Y154.795 E20.42295
G1 X75.245 Y154.475 E20.44035
G1 X71.98 Y151.716 E20.58253
G1 X71.635 Y151.4 E20.59809
G1 X68.946 Y148.742 E20.72384
G1 X68.671 Y148.452 E20.73714
G1 X66.85 Y146.395 E20.82851
G1 X66.622 Y146.121 E20.84036
G1 X64.623 Y143.573 E20.94808
G1 X64.407 Y143.28 E20.96019
G1 X62.677 Y140.775 E21.06144
G1 X62.461 Y140.438 E21.07475
G1 X60.598 Y137.314 E21.19573
G1 X60.417 Y136.989 E21.20811
G1 X59.37 Y134.957 E21.28413
G1 X59.233 Y134.672 E21.29465
G1 X57.831 Y131.557 E21.40827
G1 X57.656 Y131.125 E21.42377
G1 X56.228 Y127.156 E21.56406
G1 X56.087 Y126.71 E21.57962
G1 X55.061 Y122.963 E21.70883
G1 X54.971 Y122.585 E21.72176
G1 X54.48 Y120.194 E21.80294
G1 X54.429 Y119.914 E21.81241
G1 X54.04 Y117.427 E21.89613
G1 X53.997 Y117.089 E21.90747
G1 X53.74 Y114.482 E21.99459
G1 X53.716 Y114.141 E22.00596
G1 X53.551 Y110.146 E22.13895
G1 X53.55 Y109.686 E22.15425
G1 X53.663 Y106.486 E22.26075
G1 X53.693 Y106.065 E22.27479
G1 X54.135 Y101.901 E22.41406
G1 X54.194 Y101.484 E22.42807
G1 X54.667 Y98.823 E22.51796
G1 X54.734 Y98.495 E22.5291
G1 X55.282 Y96.173 E22.60845
G1 X55.348 Y95.918 E22.61721
G1 X56.168 Y93.018 E22.71744
G1 X56.304 Y92.599 E22.7321
G1 X57.712 Y88.731 E22.86901
G1 X57.884 Y88.308 E22.88419
G1 X59.112 Y85.596 E22.98321
G1 X59.263 Y85.287 E22.99465
G1 X60.987 Y81.996 E23.11822
G1 X61.174 Y81.666 E23.13083
G1 X62.34 Y79.746 E23.20555
G1 X62.565 Y79.401 E23.21925
G1 X65.205 Y75.659 E23.37156
G1 X65.525 Y75.245 E23.38897
G1 X68.284 Y71.98 E23.53114
G1 X68.6 Y71.635 E23.5467
G1 X71.258 Y68.946 E23.67246
M204 S5000
M205 X30 Y30
G0 F3600 X71.542 Y69.227
M204 S500
M205 X20 Y20
G1 F1800 X71.813 Y68.971 E23.68485
G1 X73.87 Y67.15 E23.77623
G1 X74.125 Y66.937 E23.78728
G1 X76.673 Y64.938 E23.89499
G1 X76.948 Y64.736 E23.90634
G1 X79.453 Y63.006 E24.0076
G1 X79.767 Y62.804 E24.02002
G1 X82.89 Y60.942 E24.14095
G1 X83.192 Y60.774 E24.15244
G1 X85.225 Y59.726 E24.22852
G1 X85.493 Y59.597 E24.23841
G1 X88.608 Y58.195 E24.35202
G1 X89.01 Y58.033 E24.36644
G1 X92.979 Y56.605 E24.50673
G1 X93.396 Y56.473 E24.52128
G1 X97.143 Y55.447 E24.65049
G1 X97.496 Y55.362 E24.66257
G1 X99.887 Y54.871 E24.74376
G1 X100.148 Y54.824 E24.75258
G1 X102.635 Y54.435 E24.8363
G1 X102.951 Y54.395 E24.84689
G1 X105.558 Y54.138 E24.93402
G1 X105.876 Y54.116 E24.94462
G1 X109.871 Y53.951 E25.07761
G1 X110.3 Y53.949 E25.09188
G1 X113.499 Y54.062 E25.19835
G1 X113.892 Y54.09 E25.21145
G1 X118.058 Y54.532 E25.35079
G1 X118.447 Y54.587 E25.36386
G1 X121.107 Y55.06 E25.45372
G1 X121.413 Y55.124 E25.46411
G1 X123.735 Y55.672 E25.54347
G1 X123.973 Y55.733 E25.55164
G1 X126.873 Y56.553 E25.65187
G1 X127.263 Y56.679 E25.66551
G1 X131.106 Y58.077 E25.80152
G1 X131.5 Y58.238 E25.81568
G1 X134.237 Y59.476 E25.91559
G1 X134.528 Y59.617 E25.92634
G1 X137.819 Y61.341 E26.04991
G1 X138.127 Y61.516 E26.06169
G1 X140.047 Y62.682 E26.13641
G1 X140.366 Y62.89 E26.14907
G1 X144.101 Y65.522 E26.30105
G1 X144.468 Y65.805 E26.31646
G1 X147.271 Y68.15 E26.43801
G1 X147.49 Y68.342 E26.4477
G1 X148.857 Y69.612 E26.50976
G1 X149.059 Y69.81 E26.51917
G1 X151.363 Y72.178 E26.62905
G1 X151.641 Y72.486 E26.64285
G1 X154.246 Y75.594 E26.77774
G1 X154.503 Y75.925 E26.79167
G1 X156.317 Y78.452 E26.89513
G1 X156.502 Y78.726 E26.90613
G1 X158.32 Y81.602 E27.0193
G1 X158.489 Y81.888 E27.03035
G1 X159.694 Y84.071 E27.11328
G1 X159.858 Y84.392 E27.12527
G1 X161.488 Y87.855 E27.25257
G1 X161.626 Y88.175 E27.26416
G1 X162.506 Y90.393 E27.34353
G1 X162.625 Y90.723 E27.35519
G1 X163.84 Y94.451 E27.48561
G1 X163.945 Y94.814 E27.49817
G1 X164.729 Y97.917 E27.60462
G1 X164.805 Y98.263 E27.61641
G1 X165.377 Y101.332 E27.72024
G1 X165.438 Y101.739 E27.73393
G1 X165.855 Y105.488 E27.85939
G1 X165.884 Y105.866 E27.872
G1 X166.049 Y109.697 E27.99954
G1 X166.053 Y110.061 E28.01164
G1 X166.003 Y112.338 E28.08739
G1 X165.982 Y112.715 E28.09995
G1 X165.572 Y117.288 E28.25266
G1 X165.528 Y117.645 E28.26463
G1 X165.23 Y119.57 E28.32941
G1 X165.166 Y119.912 E28.34099
G1 X164.347 Y123.648 E28.4682
G1 X164.275 Y123.94 E28.4782
G1 X163.584 Y126.441 E28.5645
G1 X163.474 Y126.794 E28.5768
G1 X162.302 Y130.155 E28.69519
G1 X162.179 Y130.474 E28.70656
G1 X161.307 Y132.556 E28.78163
G1 X161.171 Y132.857 E28.79262
G1 X159.341 Y136.591 E28.93093
G1 X159.099 Y137.033 E28.94769
G1 X156.702 Y140.981 E29.1013
G1 X156.478 Y141.321 E29.11485
G1 X154.762 Y143.733 E29.2133
G1 X154.574 Y143.983 E29.2237
G1 X153.007 Y145.944 E29.30719
G1 X152.849 Y146.132 E29.31536
G1 X151.474 Y147.706 E29.38487
G1 X151.238 Y147.961 E29.39643
G1 X148.418 Y150.811 E29.52978
G1 X148.146 Y151.067 E29.54221
G1 X146.127 Y152.852 E29.63184
G1 X145.875 Y153.063 E29.64277
G1 X143.327 Y155.062 E29.75049
G1 X143.052 Y155.264 E29.76184
G1 X140.547 Y156.994 E29.86309
G1 X140.187 Y157.223 E29.87728
G1 X136.226 Y159.534 E30.02981
G1 X135.762 Y159.776 E30.04721
G1 X131.458 Y161.774 E30.20504
G1 X130.997 Y161.964 E30.22162
G1 X127.022 Y163.395 E30.36214
G1 X126.604 Y163.527 E30.37672
G1 X122.857 Y164.553 E30.50593
G1 X122.504 Y164.638 E30.51801
G1 X120.113 Y165.129 E30.59919
G1 X119.852 Y165.176 E30.60801
G1 X117.365 Y165.565 E30.69173
G1 X117.049 Y165.605 E30.70233
G1 X114.442 Y165.862 E30.78946
G1 X114.124 Y165.884 E30.80006
G1 X110.129 Y166.049 E30.93305
G1 X109.7 Y166.051 E30.94732
G1 X106.5 Y165.938 E31.05382
G1 X106.107 Y165.91 E31.06692
G1 X101.943 Y165.468 E31.20619
G1 X101.554 Y165.413 E31.21926
G1 X98.893 Y164.94 E31.30915
G1 X98.586 Y164.876 E31.31958
G1 X96.239 Y164.322 E31.39979
G1 X96 Y164.26 E31.408
G1 X93.125 Y163.446 E31.50738
G1 X92.737 Y163.321 E31.52094
G1 X88.894 Y161.923 E31.65695
G1 X88.5 Y161.762 E31.67111
G1 X85.763 Y160.524 E31.77102
G1 X85.472 Y160.383 E31.78178
G1 X82.181 Y158.659 E31.90535
G1 X81.873 Y158.484 E31.91713
G1 X79.953 Y157.318 E31.99184
